!!!!SEGMENT: pl-wtm--r-1435_stefani-jozef--polonez-heroiczny.krn
!!!cenid: 18xx:2455
!!!COM: Stefani, Józef
!!!COM-rismID: pe30024097
!!!CDT: 1800/04/16-1876/03/19
!!!CNT: Polish
!!!OTL: Polonez heroiczny
!!!PDT:
!!!AGN: Secular; Polonaise
!!!SMS-siglum: PL-Wtm
!!!SMS-shelfmark: R 1435
!!!SMS-shelfwork: W
!!!SMS-variant:
!!!SMS-altvar:
!!!NIFC-rismSourceID: 1001116267
!!!NIFC-islandoraID: pl-wtm:25654
!!!URL-pdf-islandora: https://repozytorium.nifc.pl/islandora/object/pl-wtm%3A25654/datastream/PDF/view
!!!URL-scan: https://polish.musicsources.pl/pl/lokalizacje/galeria/rekopisy/6253 @EN{Scan on Polish Music Sources Website} @PL{Skany w portalu Dziedzictwo Muzyki Polskiej w otwartym dostępie}
!!!ONB-nifc:
!!!AIN: 1 clars 1 cor 2 empty 1 fagot 1 flt 1 oboe 1 tromp 1 tromt 1 viola 2 violn
!!!key:
**kern	**dynam	**kern	**dynam	**kern	**dynam	**kern	**dynam	**kern	**dynam	**kern	**dynam	**kern	**dynam	**kern	**dynam	**kern	**dynam	**kern	**dynam	**kern	**dynam	**kern	**dynam
*part12	*part12	*part11	*part11	*part10	*part10	*part9	*part9	*part8	*part8	*part7	*part7	*part6	*part6	*part5	*part5	*part4	*part4	*part3	*part3	*part2	*part2	*part1	*part1
*staff12	*	*staff11	*	*staff10	*	*staff9	*	*staff8	*	*staff7	*	*staff6	*	*staff5	*	*staff4	*	*staff3	*	*staff2	*	*staff1	*
*Iempty	*	*Iviola	*	*Ivioln	*	*Ivioln	*	*Itromt	*	*Iempty	*	*Itromp	*	*Ifagot	*	*Icor	*	*Iclars	*	*Ioboe	*	*Iflt	*
*I"Baſsi	*	*I"Viole	*	*I"Violini	*	*I"Violini	*	*I"Trombone	*	*I"Banda	*	*I"in C. Trombe	*	*I"Fagoto	*	*I"in C Corni	*	*I"in C. Clarinetti	*	*I"Oboe	*	*I"Flauto	*
*clefF4	*	*clefC3	*	*clefG2	*	*clefG2	*	*clefF4	*	*clefF4	*	*clefG2	*	*clefF4	*	*clefG2	*	*clefG2	*	*clefG2	*	*clefG2	*
*Trd0c0	*	*	*	*	*	*	*	*	*	*	*	*	*	*	*	*	*	*	*	*	*	*	*
*>[A,A,B,B,C,C,D,A,A,B,B,E]	*	*>[A,A,B,B,C,C,D,A,A,B,B,E]	*	*>[A,A,B,B,C,C,D,A,A,B,B,E]	*	*>[A,A,B,B,C,C,D,A,A,B,B,E]	*	*>[A,A,B,B,C,C,D,A,A,B,B,E]	*	*>[A,A,B,B,C,C,D,A,A,B,B,E]	*	*>[A,A,B,B,C,C,D,A,A,B,B,E]	*	*>[A,A,B,B,C,C,D,A,A,B,B,E]	*	*>[A,A,B,B,C,C,D,A,A,B,B,E]	*	*>[A,A,B,B,C,C,D,A,A,B,B,E]	*	*>[A,A,B,B,C,C,D,A,A,B,B,E]	*	*>[A,A,B,B,C,C,D,A,A,B,B,E]	*
*k[f#]	*	*k[f#]	*	*k[f#]	*	*k[f#]	*	*k[f#]	*	*k[f#]	*	*k[f#]	*	*k[f#]	*	*k[f#]	*	*k[f#]	*	*k[f#]	*	*k[f#]	*
*G:	*	*G:	*	*G:	*	*G:	*	*G:	*	*G:	*	*G:	*	*G:	*	*G:	*	*G:	*	*G:	*	*G:	*
*M3/4	*	*M3/4	*	*M3/4	*	*M3/4	*	*M3/4	*	*M3/4	*	*M3/4	*	*M3/4	*	*M3/4	*	*M3/4	*	*M3/4	*	*M3/4	*
=1	=1	=1	=1	=1	=1	=1	=1	=1	=1	=1	=1	=1	=1	=1	=1	=1	=1	=1	=1	=1	=1	=1	=1
*>A	*	*>A	*	*>A	*	*>A	*	*>A	*	*>A	*	*>A	*	*>A	*	*>A	*	*>A	*	*>A	*	*>A	*
*	*	*	*	*	*	*	*	*	*	*^	*	*	*	*	*	*	*	*	*	*	*	*	*
!	!LO:DY:rj	!	!LO:DY:rj	!	!	!	!LO:DY:rj	!	!	!	!	!	!	!	!	!LO:DY:rj	!	!LO:DY:rj	!	!	!	!	!	!LO:DY:rj
8E-X\L	f	8e-X\L	f	8b-X/L 8g/	.	8gg\L 8b-X\	f	8E-X\L	.	8Ree/L	4.Ra\	.	8b-X/L 8g/	.	8B-X\L	f	8gg\L 8g\	f	8b-X/L 8g'/	.	8gg\L	.	8ggg\L	f
*	*	*	*	*	*	*	*	*	*	*tremolo	*	*	*	*	*	*	*	*	*	*	*	*	*	*
16E-\L	.	16e-\L	.	16b-/L 16g/	.	16gg\L 16b-\	.	16E-\L	.	32Ree/LL	.	.	16b-/L 16g/	.	16B-\L	.	16gg\L 16g\	.	16b-/L 16g'/	.	16gg\L	.	16ggg\L	.
.	.	.	.	.	.	.	.	.	.	32Ree/	.	.	.	.	.	.	.	.	.	.	.	.	.	.
16E-\JJ	.	16e-\JJ	.	16b-/JJ 16g/	.	16gg\JJ 16b-\	.	16E-\JJ	.	32Ree/	.	.	16b-/JJ 16g/	.	16B-\JJ	.	16gg\JJ 16g\	.	16b-/JJ 16g'/	.	16gg\JJ	.	16ggg\JJ	.
.	.	.	.	.	.	.	.	.	.	32Ree/JJJ	.	.	.	.	.	.	.	.	.	.	.	.	.	.
*2\right	*	*2\right	*	*	*	*	*	*2\right	*	*Xtremolo	*	*	*	*	*	*	*2\right	*	*	*	*2\right	*	*2\right	*
*tremolo	*	*tremolo	*	*	*	*	*	*tremolo	*	*	*	*	*	*	*	*	*tremolo	*	*	*	*tremolo	*	*tremolo	*
!	!	!	!	!	!	!	!	!	!	!	!	!	!	!	!	!	!	!	!	!	!	!	!LO:TX:t=....	!
8E-\L	.	8e-\L	.	8b-/L 8g/	.	8gg\L 8b-\	.	8E-\L	.	8Ree/L	.	.	8b-/L 8g/	.	8B-\L	.	8gg\L 8g\	.	8b-/L 8g'/	.	8gg\L	.	8ggg'\L	.
8E-\	.	8e-\	.	8bn/ 8g/	.	8gg\ 8bn\	.	8E-\	.	8Ree/	8Ra\L	.	8bn/ 8g/	.	8Bn\	.	8gg\ 8g\	.	8bn/ 8g'/	.	8gg\	.	8ggg'\	.
8E-\	.	8e-\	.	8cc/ 8g/	.	8gg\ 8cc\	.	8E-\	.	8Ree/	8Ra\	.	8cc/ 8g/	.	8c\	.	8gg\ 8g\	.	8cc/ 8g'/	.	8gg\	.	8ggg'\	.
8E-\J	.	8e-\J	.	8cc#X/J 8g/	.	8gg\J 8cc#X\	.	8E-\J	.	8Ree/J	8Ra\J	.	8cc#X/J 8g/	.	8c#X\J	.	8gg\J 8g\	.	8cc#X/J 8g'/	.	8gg\J	.	8ggg'\J	.
*Xtremolo	*	*Xtremolo	*	*	*	*	*	*Xtremolo	*	*	*	*	*	*	*	*	*Xtremolo	*	*	*	*Xtremolo	*	*Xtremolo	*
=2	=2	=2	=2	=2	=2	=2	=2	=2	=2	=2	=2	=2	=2	=2	=2	=2	=2	=2	=2	=2	=2	=2	=2	=2
*	*	*	*	*	*	*	*	*	*	*	*	*	*	*	*	*	*^	*	*	*	*	*	*	*
8D\L	.	8d\L	.	8dd/L 8f#/	.	8ff#\L 8dd\	.	8D\L	.	8Ree/	8Ra\	.	8dd/L 8f#/	.	8d\L	.	8dd/L	8dd\L	.	8dd/L 8f#/	.	8ff#\L	.	8fff#\L	.
16r	.	16r	.	16r	.	16r	.	16r	.	8r	8r	.	16r	.	16r	.	16r	16ryy	.	16r	.	16r	.	16r	.
16D\Jk	.	16f#\Jk 16A\	.	16dd/Jk 16f#/	.	16fff#\Jk 16ff#\	.	16D\Jk	.	.	.	.	16dd/Jk 16f#/	.	16D\Jk	.	16dd/Jk	16dd\Jk	.	16dd/Jk 16f#/	.	16ff#\Jk	.	16ddd\Jk	.
8D'/L	.	4f#\ 4A\	.	4dd/ 4f#/	.	4fff#\ 4ff#\	.	8D/L	.	4Ree/	4Ra\	.	4dd/ 4f#/	.	8D/L	.	4dd/	4dd\	.	4dd/ 4f#/	.	4ff#\	.	4ddd\	.
8C'/	.	.	.	.	.	.	.	8C/	.	.	.	.	.	.	8C/	.	.	.	.	.	.	.	.	.	.
8BB'/	.	4r	.	4r	.	4r	p	8BB/	.	4r	4r	.	4r	.	8BB/	.	4r	4rcyy	.	8r	.	4r	.	8r	.
8AA'/J	.	.	.	.	.	.	.	8AA/J	.	.	.	.	.	.	8D/J	.	.	.	.	8d/	.	.	.	8dd|\	.
*	*	*	*	*	*	*	*	*	*	*v	*v	*	*	*	*	*	*v	*v	*	*	*	*	*	*	*
=3	=3	=3	=3	=3	=3	=3	=3	=3	=3	=3	=3	=3	=3	=3	=3	=3	=3	=3	=3	=3	=3	=3	=3
!	!	!	!	!	!	!LO:TX:t=P:problem=kolejne 8 taktów ponumerowane ołówkiem od 1-8, potem do tych fragmentów będą odsyłać cyfry w dalszej części partytury	!	!	!	!	!	!	!	!	!	!	!	!	!	!	!	!	!
!	!LO:DY:rj	!	!	!	!	!LO:TX:t=1.:ołówkiem:problem	!	!	!LO:DY:rj	!	!	!	!	!	!	!	!	!	!	!	!	!	!
(>4GG/	p	(4d/	.	(4g/	.	(>4b/	.	4GG/	p	2.r	.	2.r	.	(4B\	.	2.r	.	(>4b/	.	2.r	.	(4bb\	.
8G\)	.	8B/)	.	8d/)	.	8g/)	.	4r	.	.	.	.	.	8G\)	.	.	.	8g/)	.	.	.	8gg\)	.
8r	.	8r	.	8r	.	8r	.	.	.	.	.	.	.	16r	.	.	.	16r	.	.	.	16r	.
.	.	.	.	.	.	.	.	.	.	.	.	.	.	16G|\	.	.	.	16g|/	.	.	.	16gg|\	.
4r	.	4r	.	4r	.	4r	.	4r	.	.	.	.	.	(16F#\LL	.	.	.	(>16f#/LL	.	.	.	(16ff#\LL	.
.	.	.	.	.	.	.	.	.	.	.	.	.	.	16G\	.	.	.	16g/	.	.	.	16gg\	.
.	.	.	.	.	.	.	.	.	.	.	.	.	.	16A\	.	.	.	16a/	.	.	.	16aa\	.
.	.	.	.	.	.	.	.	.	.	.	.	.	.	16B\JJ)	.	.	.	16b/JJ	.	.	.	16bb\JJ	.
!!LO:PB:g=original
=4	=4	=4	=4	=4	=4	=4	=4	=4	=4	=4	=4	=4	=4	=4	=4	=4	=4	=4	=4	=4	=4	=4	=4
*	*	*	*	*	*	*	*	*	*	*^	*	*	*	*	*	*^	*	*	*	*	*	*	*
!	!	!	!	!	!	!LO:TX:t=2:ołówkiem:problem	!	!	!	!	!	!	!	!	!	!	!	!	!	!LO:TX:t=P:problem=brak zakończenia łuku	!	!	!	!LO:TX:t=P:problem=brak zakończenia łuku	!
(4AA/	.	4.c/	.	(4f#/	.	(4cc\	.	4r	.	4rF	4rEEyy	.	4r	.	(4c\	.	4rdd	4rcyy	.	(>4cc/)	.	4r	.	(4ccc\)	.
8A\)	.	.	.	8d/)	.	8f#/)	.	4r	.	4rF	4rEEyy	.	4r	.	8F#\)	.	4rdd	4rcyy	.	8f#/)	.	4r	.	8ff#\)	.
8r	.	8r	.	8r	.	8r	.	.	.	.	.	.	.	.	8r	.	.	.	.	8r	.	.	.	8r	.
.	.	.	.	.	.	.	.	.	.	16qqRee/LL	.	f	.	.	.	.	.	.	.	.	.	.	.	.	.
.	.	.	.	.	.	.	.	.	.	16qqRee/JJ	.	.	.	.	.	.	.	.	.	.	.	.	.	.	.
!	!	!	!	!	!	!	!	!	!	!	!	!	!	!	!	!	!	!	!LO:DY:rj	!	!	!	!LO:DY:rj	!	!
8d\ 8D\	f	8f#/ 8A/ 8D/	f	8ff#/ 8a/ 8d/	f	8ddd\ 8dd\	f	8D\	.	8Ree/	8Ra\	.	8dd/ 8f#/	f	8r	.	8dd/	8dd\	f	8r	.	8dd\	f	8r	.
8r	.	8r	.	8r	.	8r	.	8r	.	8rF	8rEEyy	.	8r	.	((8D\	.	8rdd	8rcyy	.	8d/	.	8r	.	((8dd\	.
*	*	*	*	*	*	*	*	*	*	*v	*v	*	*	*	*	*	*	*	*	*	*	*	*	*	*
=5	=5	=5	=5	=5	=5	=5	=5	=5	=5	=5	=5	=5	=5	=5	=5	=5	=5	=5	=5	=5	=5	=5	=5	=5
!	!	!	!	!	!	!LO:TX:t=3.:ołówkiem:problem	!	!	!	!	!	!	!	!	!	!LO:TX:t=P:problem=2\right&colon; global	!	!LO:DY:a	!	!	!	!	!	!
8BB/	p	8r	p	8r	.	8r	p	2.r	.	2.r	.	2.r	.	4.d\)	.	(4.dd/	2g\	p	(>4.dd/	.	(4.dd\	<	4.ddd\)	.
8r	.	8G/	.	8d/	.	8g/	.	.	.	.	.	.	.	.	.	.	.	.	.	.	.	.	.	.
8BB/	.	8r	.	8r	.	8r	.	.	.	.	.	.	.	.	.	.	.	.	.	.	.	.	.	.
8r	.	8G/	.	8d#X/	.	8g/	.	.	.	.	.	.	.	8d#X\	.	8dd#X/	.	.	8dd#X/	.	8dd#X\	[ >	8ddd#X\	.
8C/	.	8r	.	8r	.	8r	.	.	.	.	.	.	.	(16f#\LL	.	4ee/)	4cc\	.	16ff#/LL	.	8ee\L	.	16fff#\LL	.
.	.	.	.	.	.	.	.	.	.	.	.	.	.	16e\	.	.	.	.	16ee/	.	.	.	16eee\	.
8r	.	8c/	.	8e/	.	8a/	.	.	.	.	.	.	.	16c\	.	.	.	.	16cc/	.	8cc\J)	]	16ccc\	.
.	.	.	.	.	.	.	.	.	.	.	.	.	.	16A\JJ))	.	.	.	.	16a/JJ)	.	.	.	16aa\JJ)	.
*	*	*	*	*	*	*	*	*	*	*	*	*	*	*	*	*v	*v	*	*	*	*	*	*	*
=6	=6	=6	=6	=6	=6	=6	=6	=6	=6	=6	=6	=6	=6	=6	=6	=6	=6	=6	=6	=6	=6	=6	=6
!	!	!	!	!	!	!LO:TX:t=4.:ołówkiem:problem	!	!	!	!	!	!	!	!	!	!	!	!	!	!	!	!	!
8D\	.	8r	.	8r	.	8r	.	2.r	.	2.r	.	4r	.	(8.G\L	.	4.dd/ 4.g/	.	(8.g/L	.	(4b\	.	(8.gg\L	.
8r	.	8B/L	.	8d/L	.	8g/	.	.	.	.	.	.	.	.	.	.	.	.	.	.	.	.	.
.	.	.	.	.	.	.	.	.	.	.	.	.	.	32A\LL	.	.	.	32a/LL	.	.	.	32aa\LL	.
.	.	.	.	.	.	.	.	.	.	.	.	.	.	32G\JJJ	.	.	.	32g/JJJ)	.	.	.	32gg\JJJ)	.
8D\	.	8A/J	.	8d/J	.	8.f#/L	<	.	.	.	.	8.r	.	8.F#\L)	.	.	.	8.f#/L	.	8.a\)	.	8.ff#\L	.
8r	.	8r	.	8r	.	.	.	.	.	.	.	.	.	.	.	8r	.	.	.	.	.	.	.
.	.	.	.	.	.	16d|/Jk	.	.	.	.	.	16d|/	.	(16D\Jk	.	.	.	(16d/Jk	.	16dd\	.	16dd\Jk	.
!	!	!	!	!	!	!	!	!	!	!	!	!	!	!	!	!	!	!LO:TX:a:i:t=due	!	!	!	!	!
4r	.	4r	.	4r	.	(16e/LL	.	.	.	.	.	(16e/LL	.	16E\LL	.	4r	.	16e/LL	.	(16ee\LL	.	(16ee\LL	.
.	.	.	.	.	.	16f#/	.	.	.	.	.	16f#/	.	16F#\	.	.	.	16f#/	.	16ff#\	.	16ff#\	.
.	.	.	.	.	.	16g/	[	.	.	.	.	16g/	.	16G\	.	.	.	16g/	.	16gg\	.	16gg\	.
.	.	.	.	.	.	16a/JJ)	.	.	.	.	.	16a/JJ)	.	16A\JJ)	.	.	.	16a/JJ	.	16aa\JJ	.	16aa\JJ	.
=7	=7	=7	=7	=7	=7	=7	=7	=7	=7	=7	=7	=7	=7	=7	=7	=7	=7	=7	=7	=7	=7	=7	=7
*	*	*	*	*	*	*	*	*	*	*^	*	*^	*	*	*	*	*	*	*	*	*	*	*
!	!LO:DY:rj	!	!	!	!	!LO:TX:t=5:ołówkiem:problem	!LO:DY:rj	!	!	!	!	!	!	!	!	!	!	!	!	!	!	!	!	!	!
(4GG/	f	(4d/	.	(4g/	.	(16b/LL	f	4G\	.	8Ree/L	4Ra\	.	(16b/LL	4g\	.	(16B\LL	.	4.dd/ 4.g/	.	(16b/LL)	.	(16bb\LL)	.	(16bb\LL)	.
.	.	.	.	.	.	16cc/	.	.	.	.	.	.	16cc/	.	.	16c\	.	.	.	16cc/	.	16ccc\	.	16ccc\	.
*	*	*	*	*	*	*	*	*	*	*tremolo	*	*	*	*	*	*	*	*	*	*	*	*	*	*	*
.	.	.	.	.	.	16b/	.	.	.	32Ree/LL	.	.	16b/	.	.	16B\	.	.	.	16b/	.	16bb\	.	16bb\	.
.	.	.	.	.	.	.	.	.	.	32Ree/	.	.	.	.	.	.	.	.	.	.	.	.	.	.	.
.	.	.	.	.	.	16a/JJ	.	.	.	32Ree/	.	.	16a/JJ)	.	.	16A\JJ	.	.	.	16a/JJ	.	16aa\JJ	.	16aa\JJ	.
.	.	.	.	.	.	.	.	.	.	32Ree/JJJ	.	.	.	.	.	.	.	.	.	.	.	.	.	.	.
*	*	*	*	*	*	*	*	*	*	*Xtremolo	*	*	*	*	*	*	*	*	*	*	*	*	*	*	*
8G\)	.	8B/)	.	8d/)	.	8g/L)	.	8G\	.	8Ree/	8Ra\	.	8g/L	8d\	.	8G\L)	.	.	.	8g/L)	.	8gg\L)	.	8gg\L)	.
8r	.	8B/	.	8d/	.	16r	.	8r	.	8r	8r	.	16r	8d\	.	16r	.	8dd/ 8g/	.	16r	.	16r	.	16r	.
.	.	.	.	.	.	16g|/Jk	.	.	.	.	.	.	16g'/Jk	.	.	16G|\Jk	.	.	.	16g|/Jk	.	(16gg\Jk	.	16gg|\Jk	.
8G\	.	8r	.	8r	.	(16f#/LL	.	8G\	.	4r	4r	.	(16f#/LL	8rc	.	(16F#\LL	.	8r	.	(16f#/LL	.	16ff#\LL	.	(16ff#\LL	.
.	.	.	.	.	.	16g/	.	.	.	.	.	.	16g/	.	.	16G\	.	.	.	16g/	.	16gg\	.	16gg\	.
8r	.	8B/	.	8d/	.	16a/	.	8r	.	.	.	.	16a/	8d\	.	16A\	.	8dd/ 8g/	.	16a/	.	16aa\	.	16aa\	.
.	.	.	.	.	.	16b/JJ)	.	.	.	.	.	.	16b/JJ)	.	.	16B\JJ)	.	.	.	16b/JJ)	.	16bb\JJ)	.	16bb\JJ)	.
*	*	*	*	*	*	*	*	*	*	*v	*v	*	*	*	*	*	*	*	*	*	*	*	*	*	*
*	*	*	*	*	*	*	*	*	*	*	*	*v	*v	*	*	*	*	*	*	*	*	*	*	*
!!LO:PB:g=original
=8	=8	=8	=8	=8	=8	=8	=8	=8	=8	=8	=8	=8	=8	=8	=8	=8	=8	=8	=8	=8	=8	=8	=8
*	*	*	*	*	*	*	*	*	*	*^	*	*^	*	*	*	*^	*	*	*	*	*	*	*
!	!	!	!	!	!	!LO:TX:t=6.:ołówkiem:problem	!	!	!	!	!	!	!	!	!	!	!	!LO:TX:t=P:problem=partie rogu i fagotów zamienione	!	!	!LO:TX:b:i:t=due	!	!	!	!LO:TX:a:t=Col Vo. 8va	!
(>4AA/	.	4.c\	.	(4f#/	.	(16cc/LL	.	4.A\	.	8Ree/L	4Ra\	.	((>16cc/LL	4rcyy	.	(16c\LL	.	8rdd	4rcyy	.	(>16cc/LL	.	(16ccc\LL	.	(y16ccc\LLyy	.
.	.	.	.	.	.	16dd/	.	.	.	.	.	.	16dd/	.	.	16d\	.	.	.	.	16dd/	.	16ddd\	.	16ddd\yy	.
*	*	*	*	*	*	*	*	*	*	*tremolo	*	*	*	*	*	*	*	*	*	*	*	*	*	*	*	*
!	!	!	!	!	!	!	!	!	!	!	!	!	!	!	!	!	!	!LO:TX:a:i:t=Corni	!	!	!	!	!	!	!	!
.	.	.	.	.	.	16cc/	.	.	.	32Ree/LL	.	.	16cc/	.	.	16c\	.	8dd\L 8cc\	.	.	16cc/	.	16ccc\	.	16ccc\yy	.
.	.	.	.	.	.	.	.	.	.	32Ree/	.	.	.	.	.	.	.	.	.	.	.	.	.	.	.	.
.	.	.	.	.	.	16a/JJ)	.	.	.	32Ree/	.	.	16a/JJ)	.	.	16A\JJ	.	.	.	.	16a/JJ	.	16aa\JJ	.	16aa\JJ)yy	.
.	.	.	.	.	.	.	.	.	.	32Ree/JJJ	.	.	.	.	.	.	.	.	.	.	.	.	.	.	.	.
*	*	*	*	*	*	*	*	*	*	*Xtremolo	*	*	*	*	*	*	*	*	*	*	*	*	*	*	*	*
8A\)	.	.	.	8d/)	.	8f#/	.	.	.	8Ree/	4r	.	8f#/)	4rcyy	.	8F#\)	.	8dd\J 8cc\	4rcyy	.	8f#/)	.	8ff#\)	.	8ff#\yy	.
8r	.	8r	.	8r	sf	8r	.	8r	.	8r	.	.	8r	.	.	8r	.	8rdd	.	.	8r	.	8r	.	8ryy	.
!	!	!	!	!	!	!	!	!	!LO:DY:a:rj	!	!	!	!	!	!	!	!	!	!	!	!	!	!	!	!	!
8d\ 8D\	sf	8f#/ 8A/ 8D/	.	8dd/ 8f#/	.	8r	.	8D\	f	8Ree/	8Ra\	.	8dd/	8f#\	.	8r	.	8dd/	8dd\	.	8r	.	4r	.	8ryy	.
8r	.	8r	.	8r	.	(8dd\	.	8r	.	8rA	8rF	.	8d/	8rcyy	.	8d\	.	8rdd	8rcyy	.	8dd/	.	.	.	(y8ddd\yy	.
*	*	*	*	*	*	*	*	*	*	*	*	*	*	*	*	*	*	*v	*v	*	*	*	*	*	*	*
=9	=9	=9	=9	=9	=9	=9	=9	=9	=9	=9	=9	=9	=9	=9	=9	=9	=9	=9	=9	=9	=9	=9	=9	=9	=9
!	!	!	!	!	!	!LO:TX:t=7.:ołówkiem:problem	!	!	!	!	!	!	!	!	!	!	!	!	!	!	!	!	!	!	!
8BB/	.	8r	.	8r	.	[4dd\	.	2BB/	.	8Ree/L	4Ra\	.	([4d/	8rA	.	([4d\	.	8r	.	[>4dd/	.	4.dd\	.	[y4ddd\yy	.
*	*	*	*	*	*	*	*	*	*	*tremolo	*	*	*	*	*	*	*	*	*	*	*	*	*	*	*
8r	.	8d\	.	8g/ 8G/	.	.	.	.	.	32Ree/LL	.	.	.	8B\	.	.	.	8dd/ 8g/	.	.	.	.	.	.	.
.	.	.	.	.	.	.	.	.	.	32Ree/	.	.	.	.	.	.	.	.	.	.	.	.	.	.	.
.	.	.	.	.	.	.	.	.	.	32Ree/	.	.	.	.	.	.	.	.	.	.	.	.	.	.	.
.	.	.	.	.	.	.	.	.	.	32Ree/JJJ	.	.	.	.	.	.	.	.	.	.	.	.	.	.	.
*	*	*	*	*	*	*	*	*	*	*Xtremolo	*	*	*	*	*	*	*	*	*	*	*	*	*	*	*
*	*	*	*	*	*	*	*	*	*	*rep	*	*	*	*	*	*	*	*	*	*	*	*	*	*	*
8BB/	.	8r	.	8r	.	16dd\LL]	.	.	.	8Ree/L	4Ra\	.	16d/LL]	8rA	.	16d\LL]	.	8r	.	(>16dd/LL]	.	.	.	16ddd\LL]yy	.
.	.	.	.	.	.	16gg\	.	.	.	.	.	.	16g/	.	.	16g\	.	.	.	16gg/	.	.	.	16ggg\yy	.
*	*	*	*	*	*	*	*	*	*	*tremolo	*	*	*	*	*	*	*	*	*	*	*	*	*	*	*
8r	.	8d#X\	.	8g/ 8G/	.	16ff#\	.	.	.	32Ree/LL	.	.	16f#/	8B\	.	16f#\	.	8dd#X/ 8g/	.	16ff#/	.	8dd#X\	.	16fff#\yy	.
.	.	.	.	.	.	.	.	.	.	32Ree/	.	.	.	.	.	.	.	.	.	.	.	.	.	.	.
.	.	.	.	.	.	16gg\JJ)	.	.	.	32Ree/	.	.	16g/JJ	.	.	16b\JJ	.	.	.	16gg/JJ	.	.	.	16ggg\JJ)yy	.
.	.	.	.	.	.	.	.	.	.	32Ree/JJJ	.	.	.	.	.	.	.	.	.	.	.	.	.	.	.
*	*	*	*	*	*	*	*	*	*	*Xtremolo	*	*	*	*	*	*	*	*	*	*	*	*	*	*	*
*	*	*	*	*	*	*	*	*	*	*Xrep	*	*	*	*	*	*	*	*	*	*	*	*	*	*	*
*	*	*	*	*	*	*	*	*	*	*rep	*	*	*	*	*	*	*	*	*	*	*	*	*	*	*
8C/	.	8r	.	8r	.	(16ff#\LL	.	4C/	.	8Ree/L	4Ra\	.	16f#/LL	8rA	.	16f#\LL	.	8r	.	16ff#/LL	.	8ee\L	.	(y16fff#\LLyy	.
.	.	.	.	.	.	16ee\	.	.	.	.	.	.	16e/	.	.	16e\	.	.	.	16ee/	.	.	.	16eee\yy	.
*	*	*	*	*	*	*	*	*	*	*tremolo	*	*	*	*	*	*	*	*	*	*	*	*	*	*	*
8r	.	8e\	.	8a/ 8c/	.	16cc\	.	.	.	32Ree/LL	.	.	16cc/	8c\	.	16c\)	.	8ee\ 8cc\	.	16cc/	.	8cc\J	.	16ccc\yy	.
.	.	.	.	.	.	.	.	.	.	32Ree/	.	.	.	.	.	.	.	.	.	.	.	.	.	.	.
.	.	.	.	.	.	16a\JJ)	.	.	.	32Ree/	.	.	16a/JJ)	.	.	16A'\JJ	.	.	.	16a/JJ	.	.	.	16aa\JJ)yy	.
.	.	.	.	.	.	.	.	.	.	32Ree/JJJ	.	.	.	.	.	.	.	.	.	.	.	.	.	.	.
*	*	*	*	*	*	*	*	*	*	*Xtremolo	*	*	*	*	*	*	*	*	*	*	*	*	*	*	*
*	*	*	*	*	*	*	*	*	*	*Xrep	*	*	*	*	*	*	*	*	*	*	*	*	*	*	*
=10	=10	=10	=10	=10	=10	=10	=10	=10	=10	=10	=10	=10	=10	=10	=10	=10	=10	=10	=10	=10	=10	=10	=10	=10	=10
*	*	*	*	*	*	*	*	*	*	*	*	*	*	*	*	*	*	*^	*	*	*	*	*	*	*
!	!	!	!	!	!	!LO:TX:t=8.:ołówkiem:problem	!	!	!	!	!	!	!	!	!	!	!	!	!	!	!	!	!	!	!	!
8D\L	.	8d\L	.	8g/L 8B/	.	(16g/LL	.	8D\L	.	4Ree/	4Ra\	.	(<16g/LL	8B\L	.	(16G\LL	.	8dd/L	8dd\L	.	(16g/LL)	.	8b\	.	(y16gg\LLyy	.
.	.	.	.	.	.	16d/	.	.	.	.	.	.	16d/	.	.	16D\	.	.	.	.	16d/	.	.	.	16dd\yy	.
8D\J	.	8d\J	.	8f#/J 8c/	.	16b/	.	8D\J	.	.	.	.	16b/	8c\J	.	16B\	.	8dd/J	8cc\J	.	16b/	.	8r	.	16bb\yy	.
.	.	.	.	.	.	16a/JJ)	.	.	.	.	.	.	16a/JJ)	.	.	16A\JJ)	.	.	.	.	16a/JJ)	.	.	.	16aa\JJ)yy	.
8r	.	[4d\	.	4f#/ 4c/	.	(4a/	.	8r	.	8rF	8rEEyy	.	4a/	(4c\	.	(4A\	.	4dd/	4cc\	.	(4a/	.	4r	.	(y4aa\yy	.
*	*	*	*	*	*	*	*	*	*	*tremolo	*	*	*	*	*	*	*	*	*	*	*	*	*	*	*	*
8D\L	.	.	.	.	.	.	.	8D\L	.	32Ree/LLL	8Ra\L	.	.	.	.	.	.	.	.	.	.	.	.	.	.	.
.	.	.	.	.	.	.	.	.	.	32Ree/	.	.	.	.	.	.	.	.	.	.	.	.	.	.	.	.
.	.	.	.	.	.	.	.	.	.	32Ree/	.	.	.	.	.	.	.	.	.	.	.	.	.	.	.	.
.	.	.	.	.	.	.	.	.	.	32Ree/JJ	.	.	.	.	.	.	.	.	.	.	.	.	.	.	.	.
*	*	*	*	*	*	*	*	*	*	*Xtremolo	*	*	*	*	*	*	*	*	*	*	*	*	*	*	*	*
8G\J	.	8d\]	.	8g/ 8B/	.	8g/)	.	8G\J	.	8Ree/J	8Ra\J	.	8g/	8B\)	.	8G\)	.	8dd/ 8g/	4rcyy	.	8g/)	.	4r	.	8gg\)yy	.
8r	.	8r	.	8r	.	8r	.	8r	.	8rF	8rEEyy	.	8re	8rg	.	8r	.	8r	.	.	8r	.	.	.	8ryy	.
*	*	*	*	*	*	*	*	*	*	*	*	*	*	*	*	*	*	*v	*v	*	*	*	*	*	*	*
=10	=10	=10	=10	=10	=10	=10	=10	=10	=10	=10	=10	=10	=10	=10	=10	=10	=10	=10	=10	=10	=10	=10	=10	=10	=10
*	*	*	*	*	*	*	*	*	*	*	*	*	*	*	*	*	*	*^	*	*	*	*	*	*	*
!	!	!	!	!	!	!LO:TX:t=8.:ołówkiem:problem	!	!	!	!	!	!	!	!	!	!	!	!	!	!	!	!	!	!	!	!
8D\L	.	8d\L	.	8g/L 8B/	.	(16g/LL	.	8D\L	.	4Ree/	4Ra\	.	(<16g/LL	8B\L	.	(16G\LL	.	8dd/L	8dd\L	.	(16g/LL)	.	8b\	.	(16gg\LL	.
.	.	.	.	.	.	16d/	.	.	.	.	.	.	16d/	.	.	16D\	.	.	.	.	16d/	.	.	.	16dd\	.
8D\J	.	8d\J	.	8f#/J 8c/	.	16b/	.	8D\J	.	.	.	.	16b/	8c\J	.	16B\	.	8dd/J	8cc\J	.	16b/	.	8r	.	16bb\	.
.	.	.	.	.	.	16a/JJ)	.	.	.	.	.	.	16a/JJ)	.	.	16A\JJ)	.	.	.	.	16a/JJ)	.	.	.	16aa\JJ)	.
8r	.	[4d\	.	4f#/ 4c/	.	(4a/	.	8r	.	8rF	8rEEyy	.	4a/	(4c\	.	(4A\	.	4dd/	4cc\	.	(4a/	.	4r	.	(4aa\	.
*	*	*	*	*	*	*	*	*	*	*tremolo	*	*	*	*	*	*	*	*	*	*	*	*	*	*	*	*
8D\L	.	.	.	.	.	.	.	8D\L	.	32Ree/LLL	8Ra\L	.	.	.	.	.	.	.	.	.	.	.	.	.	.	.
.	.	.	.	.	.	.	.	.	.	32Ree/	.	.	.	.	.	.	.	.	.	.	.	.	.	.	.	.
.	.	.	.	.	.	.	.	.	.	32Ree/	.	.	.	.	.	.	.	.	.	.	.	.	.	.	.	.
.	.	.	.	.	.	.	.	.	.	32Ree/JJ	.	.	.	.	.	.	.	.	.	.	.	.	.	.	.	.
*	*	*	*	*	*	*	*	*	*	*Xtremolo	*	*	*	*	*	*	*	*	*	*	*	*	*	*	*	*
8G\J	.	8d\]	.	8g/ 8B/	.	8g/)	.	8G\J	.	8Ree/J	8Ra\J	.	8g/	8B\)	.	8G\)	.	8dd/ 8g/	4rcyy	.	8g/)	.	4r	.	8gg\)	.
8r	.	8r	.	8r	.	8r	.	8r	.	8rF	8rEEyy	.	8re	8rg	.	8r	.	8r	.	.	8r	.	.	.	8r	.
*	*	*	*	*	*	*	*	*	*	*	*	*	*	*	*	*	*	*v	*v	*	*	*	*	*	*	*
=11:|!|:	=11:|!|:	=11:|!|:	=11:|!|:	=11:|!|:	=11:|!|:	=11:|!|:	=11:|!|:	=11:|!|:	=11:|!|:	=11:|!|:	=11:|!|:	=11:|!|:	=11:|!|:	=11:|!|:	=11:|!|:	=11:|!|:	=11:|!|:	=11:|!|:	=11:|!|:	=11:|!|:	=11:|!|:	=11:|!|:	=11:|!|:	=11:|!|:	=11:|!|:
*>B	*	*>B	*	*>B	*	*>B	*	*>B	*>B	*>B	*>B	*>B	*>B	*>B	*	*>B	*	*>B	*>B	*>B	*	*>B	*	*>B	*
!	!	!	!	!	!	!	!	!	!	!	!	!	!	!	!	!	!	!LO:TX:t=P::problem=partie pomylone&colon;Corni zanotowane w trąbkach, a \ntrąbka w fagotach.	!	!	!	!	!	!	!
!	!	!	!	!	!	!LO:TX:a:i:t=divisi	!	!	!	!	!	!	!LO:TX:a:i:t=Trombe	!	!LO:DY:rj	!	!	!LO:TX:a:i:t=Corni	!	!	!	!	!	!	!
4D\	f	8r	.	8r	f	[4aa\ [>4a\	.	8D\L	.	8r	4Ra\	.	(4a/	8f#\L	f	2.r	.	8dd\L	.	2.r	.	[4aa\	f	2.r	.
.	.	8d\L	.	8f#/L 8A/	.	.	.	16D\L	.	32Ree/LLL	.	.	.	16f#\L	.	.	.	16dd\L	.	.	.	.	.	.	.
.	.	.	.	.	.	.	.	.	.	32Ree/	.	.	.	.	.	.	.	.	.	.	.	.	.	.	.
.	.	.	.	.	.	.	.	16D\JJ	.	32Ree/	.	.	.	16f#\JJ	.	.	.	16dd\JJ	.	.	.	.	.	.	.
.	.	.	.	.	.	.	.	.	.	32Ree/JJJ	.	.	.	.	.	.	.	.	.	.	.	.	.	.	.
4r	.	8d\	.	8f#/ 8A/	.	16aa\]LL 16a\]	.	4D\	.	4Ree/	4r	.	16a/LL	4f#\	.	.	.	4dd\	.	.	.	16aa\LL]	.	.	.
.	.	.	.	.	.	(16ddd\ 16dd\	.	.	.	.	.	.	16dd/	.	.	.	.	.	.	.	.	(16ddd\	.	.	.
.	.	8d\J	.	8f#/J 8A/	.	16ccc#X\ 16cc#X\	.	.	.	.	.	.	16cc#X/	.	.	.	.	.	.	.	.	16ccc#X\	.	.	.
.	.	.	.	.	.	16ddd\JJ 16dd\	.	.	.	.	.	.	16dd/JJ	.	.	.	.	.	.	.	.	16eee\JJ	.	.	.
8D\	.	8r	.	8r	.	16bb\LL 16b\	.	4D\	.	4Ree/	4Ra\	.	16b/LL	4g\	.	.	.	4dd\ 4g\	.	.	.	16ccc#\LL	.	.	.
.	.	.	.	.	.	16ddd\ 16dd\	.	.	.	.	.	.	16dd/	.	.	.	.	.	.	.	.	16ddd\	.	.	.
!	!	!LO:N:vis=4	!	!	!	!	!	!	!	!	!	!	!	!	!	!	!	!	!	!	!	!	!	!	!
8r	.	8d\ 8G\	.	8g/ 8B/	.	16ccc#\ 16cc#\	.	.	.	.	.	.	16cc#/	.	.	.	.	.	.	.	.	16ccc#\	.	.	.
.	.	.	.	.	.	16ddd\JJ 16dd\	.	.	.	.	.	.	16dd/JJ)	.	.	.	.	.	.	.	.	16ddd\JJ)	.	.	.
*	*	*	*	*	*	*	*	*	*	*	*	*	*v	*v	*	*	*	*	*	*	*	*	*	*	*
!!LO:PB:g=original
=12	=12	=12	=12	=12	=12	=12	=12	=12	=12	=12	=12	=12	=12	=12	=12	=12	=12	=12	=12	=12	=12	=12	=12	=12
*	*	*	*	*	*	*	*	*	*	*	*	*	*	*	*	*	*	*	*^	*	*	*	*	*
!	!	!	!	!	!	!LO:TX:t=P:problem=brak zakończenia łuku	!	!	!	!	!	!	!	!	!LO:TX:a:i:t=Fagot	!	!LO:TX:a:i:t=Corni	!	!	!	!	!	!	!	!
4D\	.	8r	.	8r	.	8.aa\L 8.a\)	.	2D\	.	8Ree/L	4Ra\	.	8.a/L 8.f#/	.	4r	.	8.dd\L	.	4r	2.rd	.	8.aa\L	.	4r	.
*	*	*	*	*	*	*	*	*	*	*tremolo	*	*	*	*	*	*	*	*	*	*	*	*	*	*	*
.	.	8d\L	.	8f#/L 8A/	.	.	.	.	.	32Ree/LL	.	.	.	.	.	.	.	.	.	.	.	.	.	.	.
.	.	.	.	.	.	.	.	.	.	32Ree/	.	.	.	.	.	.	.	.	.	.	.	.	.	.	.
.	.	.	.	.	.	16ff#\Jk 16f#\	.	.	.	32Ree/	.	.	16f#/Jk 16d/	.	.	.	16dd\Jk	.	.	.	.	16ff#\Jk	.	.	.
.	.	.	.	.	.	.	.	.	.	32Ree/JJJ	.	.	.	.	.	.	.	.	.	.	.	.	.	.	.
*	*	*	*	*	*	*	*	*	*	*Xtremolo	*	*	*	*	*	*	*	*	*	*	*	*	*	*	*
4r	.	8d\	.	8f#/ 8A/	.	4aa\ 4a\	.	.	.	4Ree/	4Ra\	.	4a/ 4f#/	.	4r	.	4dd\	.	4r	.	.	4aa\	.	4r	.
.	.	8d\J	.	8f#/J 8A/	.	.	.	.	.	.	.	.	.	.	.	.	.	.	.	.	.	.	.	.	.
8D\	.	8r	.	8r	.	4r	.	4r	.	4r	4rEEyy	.	4r	.	8r	.	4r	.	8r	.	.	4r	.	8r	.
8r	.	8d\	.	8f#/ 8A/	.	.	.	.	.	.	.	.	.	.	8d\	.	.	.	8dd/	.	.	.	.	8ddd\	.
*	*	*	*	*	*	*	*	*	*	*v	*v	*	*	*	*	*	*	*	*	*	*	*	*	*	*
=13	=13	=13	=13	=13	=13	=13	=13	=13	=13	=13	=13	=13	=13	=13	=13	=13	=13	=13	=13	=13	=13	=13	=13	=13
!	!LO:DY:rj	!	!	!	!LO:DY:rj	!	!	!	!	!	!	!	!	!	!	!	!	!	!	!	!	!	!	!
8AA/	p	8r	.	8r	p	4r	.	2.r	.	2.r	.	2.r	.	(8f#\L	.	8r	p	(8ff#/L	8r	.	2.r	.	(8fff#^<\L	.
!	!	!	!	!	!	!	!	!	!	!	!	!	!	!	!	!	!	!	!	!LO:DY:rj	!	!	!	!
8r	.	8e\ 8c#X\	.	8g/ 8A/	.	.	.	.	.	.	.	.	.	16e\Jk)	.	8ee\ 8cc#X\	.	16ee/Jk)	8g\	p	.	.	16eee\Jk)	.
.	.	.	.	.	.	.	.	.	.	.	.	.	.	16r	.	.	.	16r	.	.	.	.	16r	.
*	*	*rep	*	*rep	*	*	*	*	*	*	*	*	*	*	*	*rep	*	*	*rep	*	*	*	*	*
8AA/	.	8r	.	8r	.	4r	.	.	.	.	.	.	.	(8f#\L	.	8r	.	(8ff#/L	8r	.	.	.	(8fff#^<\L	.
8r	.	8e\ 8c#\	.	8g/ 8A/	.	.	.	.	.	.	.	.	.	16e\Jk)	.	8ee\ 8cc#\	.	16ee/Jk)	8g\	.	.	.	16eee\Jk)	.
.	.	.	.	.	.	.	.	.	.	.	.	.	.	16r	.	.	.	16r	.	.	.	.	16r	.
*	*	*Xrep	*	*Xrep	*	*	*	*	*	*	*	*	*	*	*	*Xrep	*	*	*Xrep	*	*	*	*	*
*	*	*rep	*	*rep	*	*	*	*	*	*	*	*	*	*	*	*rep	*	*	*rep	*	*	*	*	*
8AA/	.	8r	.	8r	.	(8b\L	.	.	.	.	.	.	.	(8B\L	.	8r	.	(8b/L	8r	.	.	.	(8bb^<\L	.
8r	.	8e\ 8c#\	.	8g/ 8A/	.	16cc#X\Jk)	.	.	.	.	.	.	.	16c#X\Jk)	.	8ee\ 8cc#\	.	16cc#X/Jk)	8g\	.	.	.	16ccc#X\Jk)	.
.	.	.	.	.	.	16r	.	.	.	.	.	.	.	16r	.	.	.	16rg	.	.	.	.	16r	.
*	*	*Xrep	*	*Xrep	*	*	*	*	*	*	*	*	*	*	*	*Xrep	*	*	*Xrep	*	*	*	*	*
=14	=14	=14	=14	=14	=14	=14	=14	=14	=14	=14	=14	=14	=14	=14	=14	=14	=14	=14	=14	=14	=14	=14	=14	=14
*	*	*	*	*	*	*	*	*	*	*	*	*^	*	*	*	*^	*	*	*	*	*	*	*	*
4D\	.	8r	.	8r	.	8dd\L	.	2.r	.	2.r	.	4r	2.rd	.	8d\L	.	8rdd	8rcyy	.	8dd'/L	8r	.	4r	.	8ddd\L	.
*	*	*tremolo	*	*tremolo	*	*	*	*	*	*	*	*	*	*	*	*	*	*	*	*	*	*	*	*	*	*
.	.	8d\L	.	8f#/L 8A/	.	32ee\LL	.	.	.	.	.	.	.	.	(32e\LL	.	8dd/	8dd\	.	(32ee/LL	8f#\	.	.	.	(32eee\LL	.
.	.	.	.	.	.	32dd\	.	.	.	.	.	.	.	.	32d\	.	.	.	.	32dd/	.	.	.	.	32ddd\	.
.	.	.	.	.	.	32cc#X\	.	.	.	.	.	.	.	.	32c#X\	.	.	.	.	32cc#X/	.	.	.	.	32ccc#X\	.
.	.	.	.	.	.	32b\JJJ	.	.	.	.	.	.	.	.	32B\JJJ	.	.	.	.	32b/JJJ	.	.	.	.	32bb\JJJ	.
4r	.	8d\	.	8f#/ 8A/	.	4a\	.	.	.	.	.	4r	.	.	4A\)	.	4dd/	4dd\	.	4a/)	4f#\	.	4r	.	4aa\)	.
.	.	8d\J	.	8f#/J 8A/	.	.	.	.	.	.	.	.	.	.	.	.	.	.	.	.	.	.	.	.	.	.
8D\	.	8r	.	8r	.	8r	.	.	.	.	.	8r	.	.	4r	.	4rdd	4rcyy	.	4r	4rcyy	.	8r	.	4r	.
8r	.	8d\	.	8f#/ 8A/	.	8aa\ 8a\	.	.	.	.	.	8a/	.	.	.	.	.	.	.	.	.	.	8aa\	.	.	.
*	*	*	*	*	*	*	*	*	*	*	*	*	*	*	*	*	*v	*v	*	*	*	*	*	*	*	*
*	*	*	*	*	*	*	*	*	*	*	*	*	*	*	*	*	*	*	*v	*v	*	*	*	*	*
=15	=15	=15	=15	=15	=15	=15	=15	=15	=15	=15	=15	=15	=15	=15	=15	=15	=15	=15	=15	=15	=15	=15	=15	=15
*	*	*	*	*	*	*	*	*	*	*^	*	*	*	*	*	*	*	*	*	*	*	*	*	*
!	!LO:DY:rj	!	!	!	!LO:DY:rj	!	!	!	!	!	!	!	!	!	!	!	!	!	!	!	!	!	!	!	!
4D\	f	8r	f	8r	f	[4aa\ 4a\	.	8D\L	.	8r	4Ra\	.	[4a/	8f#\L	.	2.r	.	8dd\L	.	2.r	.	[4aa\	.	2.r	.
.	.	8d\L	.	8f#/L 8A/	.	.	.	16D\L	.	32Ree/LLL	.	.	.	16f#\L	.	.	.	16dd\L	.	.	.	.	.	.	.
.	.	.	.	.	.	.	.	.	.	32Ree/	.	.	.	.	.	.	.	.	.	.	.	.	.	.	.
.	.	.	.	.	.	.	.	16D\JJ	.	32Ree/	.	.	.	16f#\JJ	.	.	.	16dd\JJ	.	.	.	.	.	.	.
.	.	.	.	.	.	.	.	.	.	32Ree/JJJ	.	.	.	.	.	.	.	.	.	.	.	.	.	.	.
4r	.	8d\	.	8f#/ 8A/	.	16aa\]LL 16a\	.	4D\	.	4Ree/	4r	.	16a/LL]	(4f#\	.	.	.	4dd\	.	.	.	16aa\LL]	.	.	.
.	.	.	.	.	.	(16ddd\ 16dd\	.	.	.	.	.	.	16dd/	.	.	.	.	.	.	.	.	(16ddd\	.	.	.
.	.	8d\J	.	8f#/J 8A/	.	16ccc#X\ 16cc#X\	.	.	.	.	.	.	16cc#X/	.	.	.	.	.	.	.	.	16ccc#X\	.	.	.
.	.	.	.	.	.	16ddd\JJ 16dd\	.	.	.	.	.	.	16dd/JJ	.	.	.	.	.	.	.	.	16ddd\JJ	.	.	.
8D\	.	8r	.	8r	.	16bb-X\LL 16b-X\	.	4D\	.	4Ree/	4Ra\	.	16b-X/LL	4g\)	.	.	.	4dd/ 4g/	.	.	.	16bb-X\LL	.	.	.
.	.	.	.	.	.	16ddd\ 16dd\	.	.	.	.	.	.	16dd/	.	.	.	.	.	.	.	.	16ddd\	.	.	.
8r	.	8d\ 8G\	.	8g/ 8B-X/	.	16ccc#\ 16cc#\	.	.	.	.	.	.	16cc#/	.	.	.	.	.	.	.	.	16ccc#\	.	.	.
.	.	.	.	.	.	16ddd\JJ 16dd\)	.	.	.	.	.	.	16dd/JJ	.	.	.	.	.	.	.	.	16ddd\JJ)	.	.	.
*	*	*	*	*	*	*	*	*	*	*	*	*	*v	*v	*	*	*	*	*	*	*	*	*	*	*
!!LO:PB:g=original
=16	=16	=16	=16	=16	=16	=16	=16	=16	=16	=16	=16	=16	=16	=16	=16	=16	=16	=16	=16	=16	=16	=16	=16	=16
.	.	.	.	.	.	(8qbb/ (8qb/	.	.	.	.	.	.	(8qb/	.	.	.	.	.	.	.	8qbb/	.	.	.
*	*	*	*	*	*	*	*	*	*	*	*	*	*	*	*	*	*^	*	*	*	*	*	*	*
4D\	.	8r	.	8r	.	8.aa\L 8.a\))	.	2D\	.	8Ree/L	4Ra\	.	8.a/L)	.	4r	.	8.dd/L	8.dd\L	.	4r	.	8.aa\L	.	4r	.
*	*	*	*	*	*	*	*	*	*	*tremolo	*	*	*	*	*	*	*	*	*	*	*	*	*	*	*
.	.	8d\L	.	8f#/L 8A/	.	.	.	.	.	32Ree/LL	.	.	.	.	.	.	.	.	.	.	.	.	.	.	.
.	.	.	.	.	.	.	.	.	.	32Ree/	.	.	.	.	.	.	.	.	.	.	.	.	.	.	.
.	.	.	.	.	.	16ff#\Jk 16f#\	.	.	.	32Ree/	.	.	16f#|/Jk	.	.	.	16dd/Jk	16dd\Jk	.	.	.	16ff#\Jk	.	.	.
.	.	.	.	.	.	.	.	.	.	32Ree/JJJ	.	.	.	.	.	.	.	.	.	.	.	.	.	.	.
*	*	*	*	*	*	*	*	*	*	*Xtremolo	*	*	*	*	*	*	*	*	*	*	*	*	*	*	*
4r	.	8d\	.	8f#/ 8A/	.	4aa\ 4a\	.	.	.	4Ree/	4Ra\	.	4a|/	.	4r	.	4dd/	4dd\	.	4r	.	4aa\	.	4r	.
.	.	8d\J	.	8f#/J 8A/	.	.	.	.	.	.	.	.	.	.	.	.	.	.	.	.	.	.	.	.	.
8D\	.	8r	.	8r	.	4r	.	4r	.	4r	4rEEyy	.	4r	.	8r	.	4r	4rcyy	.	8r	.	4r	.	8r	.
*	*	*Xtremolo	*	*Xtremolo	*	*	*	*	*	*	*	*	*	*	*	*	*	*	*	*	*	*	*	*	*
8r	.	8d\	.	8f#/ 8A/	.	.	.	.	.	.	.	.	.	.	8A\	.	.	.	.	8a/	.	.	.	8aa|\	.
*	*	*	*	*	*	*	*	*	*	*v	*v	*	*	*	*	*	*v	*v	*	*	*	*	*	*	*
=17	=17	=17	=17	=17	=17	=17	=17	=17	=17	=17	=17	=17	=17	=17	=17	=17	=17	=17	=17	=17	=17	=17	=17
*	*	*	*	*	*	*	*	*	*	*	*	*	*	*	*	*	*	*^	*	*	*	*	*
!	!	!	!	!	!LO:DY:rj	!	!	!	!	!	!	!	!	!	!	!	!	!	!	!	!	!	!	!
8AA/	p	8r	.	8r	p	4r	.	2.r	.	2.r	.	2.r	.	(8f#^<\L	.	8r	.	(8ff#/L	8r	.	2.ryy	.	(8fff#^<\L	.
8r	.	8e\ 8c#X\	.	8g/ 8A/	.	.	.	.	.	.	.	.	.	16e\Jk)	.	8ee\ 8cc#X\	.	16ee/Jk)	8g\	.	.	.	16eee\Jk)	.
.	.	.	.	.	.	.	.	.	.	.	.	.	.	16r	.	.	.	16rdd	.	.	.	.	16r	.
*	*	*	*	*rep	*	*	*	*	*	*	*	*	*	*	*	*rep	*	*	*rep	*	*	*	*	*
8AA/	.	8r	.	8r	.	4r	.	.	.	.	.	.	.	(8f#^<\L	.	8r	.	(8ff#/L	8r	.	.	.	(8fff#^<\L	.
8r	.	8e\ 8c#\	.	8g/ 8A/	.	.	.	.	.	.	.	.	.	16e\Jk)	.	8ee\ 8cc#\	.	16ee/Jk)	8g\	.	.	.	16eee\Jk)	.
.	.	.	.	.	.	.	.	.	.	.	.	.	.	16r	.	.	.	16rdd	.	.	.	.	16r	.
*	*	*	*	*Xrep	*	*	*	*	*	*	*	*	*	*	*	*Xrep	*	*	*Xrep	*	*	*	*	*
*	*	*	*	*rep	*	*	*	*	*	*	*	*	*	*	*	*rep	*	*	*rep	*	*	*	*	*
8AA/	.	8r	.	8r	.	(8b\L	.	.	.	.	.	.	.	(8B\L	.	8r	.	8b/L	8r	.	.	.	(8bb\L	.
8r	.	8e\ 8c#\	.	8g/ 8A/	.	8cc#X\J)	.	.	.	.	.	.	.	8c#X\J)	.	8ee\ 8cc#\	.	8cc#X/J	8g\	.	.	.	8ccc#X\J)	.
*	*	*	*	*Xrep	*	*	*	*	*	*	*	*	*	*	*	*Xrep	*	*	*Xrep	*	*	*	*	*
=18	=18	=18	=18	=18	=18	=18	=18	=18	=18	=18	=18	=18	=18	=18	=18	=18	=18	=18	=18	=18	=18	=18	=18	=18
*	*	*	*	*	*	*	*	*	*	*	*	*^	*	*	*	*^	*	*	*	*	*	*	*	*
8D\	<	8r	.	8r	.	16dd'\LL	.	(4D\	.	2.r	.	(4dd/ 4f#/	4rcyy	.	(4d\	.	(4dd/	4dd\	.	16dd'/LL	4f#\	.	2.ryy	.	16ddd'\LL	.
.	.	.	.	.	.	(16dd\	<	.	.	.	.	.	.	.	.	.	.	.	.	(16dd/	.	.	.	.	(16ddd\	.
8r	.	8d\	.	8f#/ 8A/	<	16ee\	.	.	.	.	.	.	.	<	.	<	.	.	.	16ee/	.	<	.	.	16eee\)	.
.	.	.	.	.	.	16dd\JJ)	.	.	.	.	.	.	.	.	.	.	.	.	.	16dd/JJ)	.	.	.	.	16ddd\JJ	.
8E\	.	8r	.	8r	.	16cc#X'\LL	.	4E\	.	.	.	4cc#X/	4g\	.	4e\	.	4ee/	4cc#X\	.	16cc#X'/LL	4g\	.	.	.	16ccc#X'\LL	.
.	.	.	.	.	.	(16cc#\	.	.	.	.	.	.	.	.	.	.	.	.	.	(16cc#/	.	.	.	.	(16ccc#\	.
8r	.	8c#X\	.	8g/ 8A/	.	16dd\	.	.	.	.	.	.	.	.	.	.	.	.	.	16dd/	.	.	.	.	16ddd\	.
.	.	.	.	.	.	16cc#\JJ)	.	.	.	.	.	.	.	.	.	.	.	.	.	16cc#/JJ)	.	.	.	.	16ccc#\JJ)	.
4F#\	[	8r	.	8r	.	16ccn'\LL	.	4F#\)	.	.	.	4ccn/)	4a\	[	4f#\)	[	4dd/)	4dd\	.	16ccn'/LL	4a\	[	.	.	16cccn'\LL	.
.	.	.	.	.	.	(16cc\	[	.	.	.	.	.	.	.	.	.	.	.	.	(16cc/	.	.	.	.	(16ccc\	.
.	.	8d\	.	8a/ 8c/	[	16dd\	.	.	.	.	.	.	.	.	.	.	.	.	.	16dd/	.	.	.	.	16ddd\	.
.	.	.	.	.	.	16cc\JJ)	.	.	.	.	.	.	.	.	.	.	.	.	.	16cc/JJ)	.	.	.	.	16ccc\JJ)	.
*	*	*	*	*	*	*	*	*	*	*	*	*	*	*	*	*	*v	*v	*	*	*	*	*	*	*	*
*	*	*	*	*	*	*	*	*	*	*	*	*v	*v	*	*	*	*	*	*v	*v	*	*	*	*	*
!!LO:PB:g=original
=19	=19	=19	=19	=19	=19	=19	=19	=19	=19	=19	=19	=19	=19	=19	=19	=19	=19	=19	=19	=19	=19	=19	=19
!	!LO:DY:rj	!	!	!	!	!LO:TX:t=1.:ołówkiem:problem	!LO:DY:rj	!	!LO:DY:rj	!	!	!	!	!	!	!	!	!	!	!	!	!LO:TX:t=P:problem=na dwu stronach zapisana tylko partia fletu, reszta cyframi od 1 do 8 (takty 19-26)	!
(y>4GG/yy	py	(y4d/yy	.	(y4g/yy	.	(y4b/yy	p	4GG/yy	p	2.ryy	.	2.ryy	.	(y4B\yy	.	2.ryy	.	(y>4b/yy	.	2.ryy	.	(4bb\	.
8G\)yy	.	8B/)yy	.	8d/)yy	.	8g/)yy	.	4ryy	.	.	.	.	.	8G\)yy	.	.	.	8g/)yy	.	.	.	8gg\)	.
8ryy	.	8ryy	.	8ryy	.	8ryy	.	.	.	.	.	.	.	16ryy	.	.	.	16ryy	.	.	.	16r	.
.	.	.	.	.	.	.	.	.	.	.	.	.	.	16G|\yy	.	.	.	16g|/yy	.	.	.	16gg\	.
4ryy	.	4ryy	.	4ryy	.	4ryy	.	4ryy	.	.	.	.	.	(y16F#\LLyy	.	.	.	(y>16f#/LLyy	.	.	.	(16ff#\LL	.
.	.	.	.	.	.	.	.	.	.	.	.	.	.	16G\yy	.	.	.	16g/yy	.	.	.	16gg\	.
.	.	.	.	.	.	.	.	.	.	.	.	.	.	16A\yy	.	.	.	16a/yy	.	.	.	16aa\	.
.	.	.	.	.	.	.	.	.	.	.	.	.	.	16B\JJ)yy	.	.	.	16b/JJyy	.	.	.	16bb\JJ	.
=20	=20	=20	=20	=20	=20	=20	=20	=20	=20	=20	=20	=20	=20	=20	=20	=20	=20	=20	=20	=20	=20	=20	=20
*	*	*	*	*	*	*	*	*	*	*^	*	*	*	*	*	*^	*	*	*	*	*	*	*
!	!	!	!	!	!	!LO:TX:t=2.:ołówkiem:problem	!	!	!	!	!	!	!	!	!	!	!	!	!	!LO:TX:t=P:problem=brak zakończenia łuku	!	!	!	!	!
(y>4AA/yy	.	4.c/yy	.	(y4f#/yy	.	(y4cc\yy	.	4ryy	.	4rFyy	4rEEyyyy	.	4ryy	.	(y4c\yy	.	4rddyy	4rcyyyy	.	(y4cc/)yy	.	4ryy	.	(4ccc\)	.
8A\)yy	.	.	.	8d/)yy	.	8f#/)yy	.	4ryy	.	4rFyy	4rEEyyyy	.	4ryy	.	8F#\)yy	.	4rddyy	4rcyyyy	.	8f#/)yy	.	4ryy	.	8ff#\)	.
8ryy	.	8ryy	.	8ryy	.	8ryy	.	.	.	.	.	.	.	.	8ryy	.	.	.	.	8ryy	.	.	.	8r	.
.	.	.	.	.	.	.	.	.	.	16qqRee/LLyy	.	fy	.	.	.	.	.	.	.	.	.	.	.	.	.
.	.	.	.	.	.	.	.	.	.	16qqRee/JJyy	.	.	.	.	.	.	.	.	.	.	.	.	.	.	.
!	!LO:DY:rj	!	!LO:DY:rj	!	!LO:DY:rj	!	!LO:DY:rj	!	!	!	!	!	!	!LO:DY:rj	!	!	!	!	!LO:DY:rj	!	!	!	!LO:DY:rj	!	!
8d\yy 8D\yy	fy	8f#/yy 8A/yy 8D/yy	fy	8ff#/yy 8a/yy 8d/yy	fy	8dddyy\ 8dd\yy	fy	8D\yy	.	8Ree/yy	8Ra\yy	.	8dd/yy 8f#/yy	fy	8ryy	.	8dd/yy	8dd\yy	fy	8ryy	.	8dd\yy	fy	8r	.
8ryy	.	8ryy	.	8ryy	.	8ryy	.	8ryy	.	8rFyy	8rEEyyyy	.	8ryy	.	(y(y8D\yy	.	8rddyy	8rcyyyy	.	8d/yy	.	8ryy	.	(8dd\	.
*	*	*	*	*	*	*	*	*	*	*v	*v	*	*	*	*	*	*	*	*	*	*	*	*	*	*
=21	=21	=21	=21	=21	=21	=21	=21	=21	=21	=21	=21	=21	=21	=21	=21	=21	=21	=21	=21	=21	=21	=21	=21	=21
!	!LO:DY:rj	!	!LO:DY:rj	!	!	!LO:TX:t=3.:ołówkiem:problem	!LO:DY:rj	!	!	!	!	!	!	!	!	!	!	!LO:DY:a:rj	!	!	!	!	!	!
8BB/yy	py	8ryy	py	8ryy	.	8ryy	py	2.ryy	.	2.ryy	.	2.ryy	.	4.d\)yy	.	(y4.dd/yy	2g\yy	py	(y>4.dd/yy	.	(y4.dd\yy	<	4.ddd\	<
8ryy	.	8G/yy	.	8d/yy	.	8g/yy	.	.	.	.	.	.	.	.	.	.	.	.	.	.	.	.	.	.
8BB/yy	.	8ryy	.	8ryy	.	8ryy	.	.	.	.	.	.	.	.	.	.	.	.	.	.	.	.	.	.
8ryy	.	8G/yy	.	8d#X/yy	.	8g/yy	.	.	.	.	.	.	.	8d#X\yy	.	8dd#X/yy	.	.	8dd#X/yy	.	8dd#X\yy	[	8ddd#X\	.
8C/yy	.	8ryy	.	8ryy	.	8ryy	.	.	.	.	.	.	.	(y16f#\LLyy	.	4ee/)yy	4cc\yy	.	16ff#/LLyy	.	8ee\Lyy	>	16fff#\LL	[ >
.	.	.	.	.	.	.	.	.	.	.	.	.	.	16e\yy	.	.	.	.	16ee/yy	.	.	.	16eee\	.
8ryy	.	8c/yy	.	8e/yy	.	8a/yy	.	.	.	.	.	.	.	16c\yy	.	.	.	.	16cc/yy	.	8cc\J)yy	]]	16ccc\	]
.	.	.	.	.	.	.	.	.	.	.	.	.	.	16A\JJ))yy	.	.	.	.	16a/JJ)yy	.	.	.	16aa\JJ)	.
*	*	*	*	*	*	*	*	*	*	*	*	*	*	*	*	*v	*v	*	*	*	*	*	*	*
=22	=22	=22	=22	=22	=22	=22	=22	=22	=22	=22	=22	=22	=22	=22	=22	=22	=22	=22	=22	=22	=22	=22	=22
!	!	!	!	!	!	!LO:TX:t=4.:ołówkiem:problem	!	!	!	!	!	!	!	!	!	!	!	!	!	!	!	!	!
8D\yy	.	8ryy	.	8ryy	.	8ryy	.	2.ryy	.	2.ryy	.	4ryy	.	(y8.G\Lyy	.	4.dd/yy 4.g/yy	.	(y8.g/Lyy	.	(y4b\yy	.	(8.gg\L	.
8ryy	.	8B/Lyy	.	8d/Lyy	.	8g/yy	.	.	.	.	.	.	.	.	.	.	.	.	.	.	.	.	.
.	.	.	.	.	.	.	.	.	.	.	.	.	.	32A\LLyy	.	.	.	32a/LLyy	.	.	.	32aa\LL	.
.	.	.	.	.	.	.	.	.	.	.	.	.	.	32G\JJJyy	.	.	.	32g/JJJ)yy	.	.	.	32gg\JJJ)	.
8D\yy	.	8A/Jyy	.	8d/Jyy	.	8.f#/Lyy	<	.	.	.	.	8.ryy	.	8.F#\L)yy	.	.	.	8.f#/Lyy	.	8.a\)yy	.	8.ff#\L	.
8ryy	.	8ryy	.	8ryy	.	.	.	.	.	.	.	.	.	.	.	8ryy	.	.	.	.	.	.	.
.	.	.	.	.	.	16d|/Jkyy	.	.	.	.	.	16d|>/yy	.	(y16D\Jkyy	.	.	.	(y16d/Jkyy	.	16dd\yy	.	(16dd|\Jk	.
!	!	!	!	!	!	!	!	!	!	!	!	!	!	!	!	!	!	!LO:TX:a:i:t=due	!	!	!	!	!
4ryy	.	4ryy	.	4ryy	.	(y16e/LLyy	.	.	.	.	.	(y>16e/LLyy	.	16E\LLyy	.	4ryy	.	16e/LLyy	.	(y16ee\LLyy	.	16ee\LL	.
.	.	.	.	.	.	16f#/yy	.	.	.	.	.	16f#/yy	.	16F#\yy	.	.	.	16f#/yy	.	16ff#\yy	.	16ff#\	.
.	.	.	.	.	.	16g/yy	[	.	.	.	.	16g/yy	.	16G\yy	.	.	.	16g/yy	.	16gg\yy	.	16gg\	.
.	.	.	.	.	.	16a/JJ)yy	.	.	.	.	.	16a/JJ)yy	.	16A\JJ)yy	.	.	.	16a/JJyy	.	16aa\JJyy	.	16aa\JJ)	.
!!LO:PB:g=original
=23	=23	=23	=23	=23	=23	=23	=23	=23	=23	=23	=23	=23	=23	=23	=23	=23	=23	=23	=23	=23	=23	=23	=23
*	*	*	*	*	*	*	*	*	*	*^	*	*^	*	*	*	*	*	*	*	*	*	*	*
!	!LO:DY:rj	!	!	!	!	!LO:TX:t=5.:ołówkiem:problem	!LO:DY:rj	!	!	!	!	!	!	!	!	!	!	!	!	!	!	!	!	!	!
(y>4GG/yy	fy	(y4d/yy	.	(y4g/yy	.	(y16b/LLyy	fy	4G\yy	.	8Ree/Lyy	4Ra\yy	.	(y16b/LLyy	4g\yy	.	(y16B\LLyy	.	4.ddyy/ 4.g/yy	.	(y16b/LL)yy	.	(y16bb\LL)yy	.	(4bb\	.
.	.	.	.	.	.	16cc/yy	.	.	.	.	.	.	16cc/yy	.	.	16c\yy	.	.	.	16cc/yy	.	16ccc\yy	.	.	.
*	*	*	*	*	*	*	*	*	*	*tremolo	*	*	*	*	*	*	*	*	*	*	*	*	*	*	*
.	.	.	.	.	.	16b/yy	.	.	.	32Ree/LLyy	.	.	16b/yy	.	.	16B\yy	.	.	.	16b/yy	.	16bb\yy	.	.	.
.	.	.	.	.	.	.	.	.	.	32Ree/yy	.	.	.	.	.	.	.	.	.	.	.	.	.	.	.
.	.	.	.	.	.	16a/JJyy	.	.	.	32Ree/yy	.	.	16a/JJ)yy	.	.	16A\JJyy	.	.	.	16a/JJyy	.	16aa\JJyy	.	.	.
.	.	.	.	.	.	.	.	.	.	32Ree/JJJyy	.	.	.	.	.	.	.	.	.	.	.	.	.	.	.
*	*	*	*	*	*	*	*	*	*	*XLO:DY:rj	*	*	*	*	*	*	*	*	*	*	*	*	*	*	*
8G\)yy	.	8B/)yy	.	8d/)yy	.	8g/L)yy	.	8G\yy	.	8Ree/yy	8Ra\yy	.	8g/Lyy	8d\yy	.	8G\L)yy	.	.	.	8g/L)yy	.	8gg\L)yy	.	8gg\)	.
8ryy	.	8B/yy	.	8d/yy	.	16ryy	.	8ryy	.	8ryy	8ryy	.	16ryy	8d\yy	.	16ryy	.	8dd/yy 8g/yy	.	16ryy	.	16ryy	.	16r	.
.	.	.	.	.	.	16g|/Jkyy	.	.	.	.	.	.	16g'/Jkyy	.	.	16G|\Jkyy	.	.	.	16g|/Jkyy	.	(y16gg\Jkyy	.	16gg\	.
8G\yy	.	8ryy	.	8ryy	.	(y16f#/LLyy	.	8G\yy	.	4ryy	4ryy	.	(y16f#/LLyy	8rcyy	.	(y16F#\LLyy	.	8ryy	.	(y16f#/LLyy	.	16ff#\LLyy	.	(16ff#\LL	.
.	.	.	.	.	.	16g/yy	.	.	.	.	.	.	16g/yy	.	.	16G\yy	.	.	.	16g/yy	.	16gg\yy	.	16gg\	.
8ryy	.	8B/yy	.	8d/yy	.	16a/yy	.	8ryy	.	.	.	.	16a/yy	8d\yy	.	16A\yy	.	8dd/yy 8g/yy	.	16a/yy	.	16aa\yy	.	16aa\	.
.	.	.	.	.	.	16b/JJ)yy	.	.	.	.	.	.	16b/JJ)yy	.	.	16B\JJyy	.	.	.	16b/JJ)yy	.	16bb\JJyy	.	16bb\JJ)	.
=24	=24	=24	=24	=24	=24	=24	=24	=24	=24	=24	=24	=24	=24	=24	=24	=24	=24	=24	=24	=24	=24	=24	=24	=24	=24
*	*	*	*	*	*	*	*	*	*	*	*	*	*	*	*	*^	*	*^	*	*	*	*	*	*	*
!	!	!	!	!	!	!LO:TX:t=6.:ołówkiem:problem	!	!	!	!	!	!	!	!	!	!LO:TX:t=P:problem=brak zakończenia łuku	!	!	!LO:TX:t=P:problem=partie rogu i fagotów zamienione	!	!	!LO:TX:b:i:t=due	!	!LO:TX:t=P:problem=brak zakończenia łuku	!	!	!
(y>4AA/yy	.	4.c\yy	.	(y4f#/yy	.	(y16cc/LLyy	.	4.A\yy	.	8Ree/Lyy	4Ra\yy	.	(y<(y16cc/LLyy	4rcyy	.	(y16c\LL)yy	4rEEyyyy	.	8rddyy	4rcyyyy	.	(y>16cc/LLyy	.	(y16ccc\LL)yy	.	(4ccc\	.
.	.	.	.	.	.	16dd/yy	.	.	.	.	.	.	16dd/yy	.	.	16d\yy	.	.	.	.	.	16dd/yy	.	16ddd\yy	.	.	.
*	*	*	*	*	*	*	*	*	*	*tremolo	*	*	*	*	*	*	*	*	*	*	*	*	*	*	*	*	*
!	!	!	!	!	!	!	!	!	!	!	!	!	!	!	!	!	!	!	!LO:TX:a:i:t=Corni	!	!	!	!	!	!	!	!
.	.	.	.	.	.	16cc/yy	.	.	.	32Ree/LLyy	.	.	16cc/yy	.	.	16c\yy	.	.	8dd\Lyy 8cc\yy	.	.	16cc/yy	.	16ccc\yy	.	.	.
.	.	.	.	.	.	.	.	.	.	32Ree/yy	.	.	.	.	.	.	.	.	.	.	.	.	.	.	.	.	.
.	.	.	.	.	.	16a/JJ)yy	.	.	.	32Ree/yy	.	.	16a/JJ)yy	.	.	16A\JJyy	.	.	.	.	.	16a/JJyy	.	16aa\JJyy	.	.	.
.	.	.	.	.	.	.	.	.	.	32Ree/JJJyy	.	.	.	.	.	.	.	.	.	.	.	.	.	.	.	.	.
*	*	*	*	*	*	*	*	*	*	*Xtremolo	*	*	*	*	*	*	*	*	*	*	*	*	*	*	*	*	*
8A\)yy	.	.	.	8d/)yy	.	8f#/yy	.	.	.	8Ree/yy	4ryy	.	8f#/)yy	4rcyyyy	.	8F#\)yy	4rEEyyyy	.	8dd\Jyy 8cc\yy	4rcyyyy	.	8f#/)yy	.	8ff#\)yy	.	8ff#\)	.
8ryy	.	8ryy	.	8ryy	sfy	8ryy	.	8ryy	.	8ryy	.	.	8ryy	.	.	8ryy	.	.	8rddyy	.	.	8ryy	.	8ryy	.	8r	.
!	!	!	!	!	!	!	!	!	!LO:DY:a:rj	!	!	!	!	!	!	!	!	!	!	!	!	!	!	!	!	!	!
8d\yy 8D\yy	sfy	8f#yy/ 8Ayy/ 8D/yy	.	8ddyy/ 8f#/yy	.	8ryy	.	8D\yy	fy	8Ree/yy	8Ra\yy	.	8dd/yy	8f#\yy	.	8ryy	8F#\yy	.	8dd/yy	8dd\yy	.	8ryy	.	4ryy	.	8r	.
8ryy	.	8ryy	.	8ryy	.	(y8dd\yy	.	8ryy	.	8rAyy	8rFyy	.	8d/yy	8rcyyyy	.	8d\yy	8rEEyyyy	.	8rddyy	8rcyyyy	.	8dd/yy	.	.	.	8dd\	.
*	*	*	*	*	*	*	*	*	*	*	*	*	*	*	*	*v	*v	*	*	*	*	*	*	*	*	*	*
*	*	*	*	*	*	*	*	*	*	*	*	*	*	*	*	*	*	*v	*v	*	*	*	*	*	*	*
=25	=25	=25	=25	=25	=25	=25	=25	=25	=25	=25	=25	=25	=25	=25	=25	=25	=25	=25	=25	=25	=25	=25	=25	=25	=25
!	!	!	!	!	!	!LO:TX:t=7.:ołówkiem:problem	!	!	!	!	!	!	!	!	!	!	!	!	!	!	!	!	!	!	!
8BB/yy	.	8ryy	.	8ryy	.	[y4dd\yy	.	2BB/yy	.	8Ree/Lyy	4Ra\yy	.	(y[y4d/yy	8ryy	.	(y[y4d\yy	.	8ryy	.	[y>4dd/yy	.	4.dd\yy	.	([4ddd\	.
*	*	*	*	*	*	*	*	*	*	*tremolo	*	*	*	*	*	*	*	*	*	*	*	*	*	*	*
8ryy	.	8d\yy	.	8g/yy 8G/yy	.	.	.	.	.	32Ree/LLyy	.	.	.	8B\yy	.	.	.	8dd/yy 8g/yy	.	.	.	.	.	.	.
.	.	.	.	.	.	.	.	.	.	32Ree/yy	.	.	.	.	.	.	.	.	.	.	.	.	.	.	.
.	.	.	.	.	.	.	.	.	.	32Ree/yy	.	.	.	.	.	.	.	.	.	.	.	.	.	.	.
.	.	.	.	.	.	.	.	.	.	32Ree/JJJyy	.	.	.	.	.	.	.	.	.	.	.	.	.	.	.
*	*	*	*	*	*	*	*	*	*	*Xtremolo	*	*	*	*	*	*	*	*	*	*	*	*	*	*	*
*	*	*	*	*	*	*	*	*	*	*repy	*	*	*	*	*	*	*	*	*	*	*	*	*	*	*
8BB/yy	.	8ryy	.	8ryy	.	16dd\LL]yy	.	.	.	8Ree/Lyy	4Ra\yy	.	16d/LL]yy	8ryy	.	16d\LL]yy	.	8ryy	.	(y>16dd/LL]yy	.	.	.	16ddd\LL]	.
.	.	.	.	.	.	16gg\yy	.	.	.	.	.	.	16g/yy	.	.	16g\yy	.	.	.	16gg/yy	.	.	.	16ggg\	.
*	*	*	*	*	*	*	*	*	*	*tremolo	*	*	*	*	*	*	*	*	*	*	*	*	*	*	*
8ryy	.	8d#X\yy	.	8g/yy 8G/yy	.	16ff#\yy	.	.	.	32Ree/LLyy	.	.	16f#/yy	8B\yy	.	16f#\yy	.	8dd#Xyy/ 8g/yy	.	16ff#/yy	.	8dd#X\yy	.	16fff#\	.
.	.	.	.	.	.	.	.	.	.	32Ree/yy	.	.	.	.	.	.	.	.	.	.	.	.	.	.	.
.	.	.	.	.	.	16gg\JJ)yy	.	.	.	32Ree/yy	.	.	16g/JJyy	.	.	16b\JJyy	.	.	.	16gg/JJyy	.	.	.	16ggg\JJ	.
.	.	.	.	.	.	.	.	.	.	32Ree/JJJyy	.	.	.	.	.	.	.	.	.	.	.	.	.	.	.
*	*	*	*	*	*	*	*	*	*	*Xtremolo	*	*	*	*	*	*	*	*	*	*	*	*	*	*	*
*	*	*	*	*	*	*	*	*	*	*Xrep	*	*	*	*	*	*	*	*	*	*	*	*	*	*	*
*	*	*	*	*	*	*	*	*	*	*repy	*	*	*	*	*	*	*	*	*	*	*	*	*	*	*
8C/yy	.	8ryy	.	8ryy	.	(y16ff#\LLyy	.	4C/yy	.	8Ree/Lyy	4Ra\yy	.	16f#/LLyy	8ryy	.	16f#\LLyy	.	8ryy	.	16ff#/LLyy	.	8ee\Lyy	.	16fff#\LL	.
.	.	.	.	.	.	16ee\yy	.	.	.	.	.	.	16e/yy	.	.	16e\yy	.	.	.	16ee/yy	.	.	.	16eee\	.
*	*	*	*	*	*	*	*	*	*	*tremolo	*	*	*	*	*	*	*	*	*	*	*	*	*	*	*
8ryy	.	8e\yy	.	8a/y 8c/yy	.	16cc\yy	.	.	.	32Ree/LLyy	.	.	16cc/yy	8c\yy	.	16c\)yy	.	8ee\yy 8cc\yy	.	16cc/yy	.	8cc\Jyy	.	16ccc\	.
.	.	.	.	.	.	.	.	.	.	32Ree/yy	.	.	.	.	.	.	.	.	.	.	.	.	.	.	.
.	.	.	.	.	.	16a\JJ)yy	.	.	.	32Ree/yy	.	.	16a/JJ)yy	.	.	16A'\JJyy	.	.	.	16a/JJ)yy	.	.	.	16aa\JJ	.
.	.	.	.	.	.	.	.	.	.	32Ree/JJJyy	.	.	.	.	.	.	.	.	.	.	.	.	.	.	.
*	*	*	*	*	*	*	*	*	*	*Xtremolo	*	*	*	*	*	*	*	*	*	*	*	*	*	*	*
*	*	*	*	*	*	*	*	*	*	*Xrep	*	*	*	*	*	*	*	*	*	*	*	*	*	*	*
=26	=26	=26	=26	=26	=26	=26	=26	=26	=26	=26	=26	=26	=26	=26	=26	=26	=26	=26	=26	=26	=26	=26	=26	=26	=26
*	*	*	*	*	*	*	*	*	*	*	*	*	*	*	*	*	*	*^	*	*	*	*	*	*	*
!	!	!	!	!	!	!LO:TX:t=8.:ołówkiem:problem	!	!	!	!	!	!	!	!	!	!	!	!	!	!	!	!	!	!	!	!
8D\Lyy	.	8d\Lyy	.	8g/Lyy 8B/yy	.	(y16g/LLyy	.	8D\Lyy	.	4Ree/yy	4Ra\yy	.	(y<16g/LLyy	8B\Lyy	.	(y16G\LLyy	.	8dd/Lyy	8dd\Lyy	.	(y16g/LLyy	.	8b\yy	.	(16gg\LL)	.
.	.	.	.	.	.	16d/yy	.	.	.	.	.	.	16d/yy	.	.	16D\yy	.	.	.	.	16d/yy	.	.	.	16dd\	.
8D\Jyy	.	8d\Jyy	.	8f#/Jyy 8c/yy	.	16b/yy	.	8D\Jyy	.	.	.	.	16b/yy	8c\Jyy	.	16B\yy	.	8dd/Jyy	8cc\Jyy	.	16b/yy	.	8ryy	.	16bb\	.
.	.	.	.	.	.	16a/JJ)yy	.	.	.	.	.	.	16a/JJ)yy	.	.	16A\JJ)yy	.	.	.	.	16a/JJ)yy	.	.	.	16aa\JJ)	.
8ryy	.	[y4d\yy	.	4f#/yy 4c/yy	.	(y4a/yy	.	8ryy	.	8rFyy	8rEEyyyy	.	4a/yy	(y4c\yy	.	(y4A\yy	.	4dd/yy	4cc\yy	.	(y4a/yy	.	4ryy	.	(4aa\	.
*	*	*	*	*	*	*	*	*	*	*tremolo	*	*	*	*	*	*	*	*	*	*	*	*	*	*	*	*
8D\Lyy	.	.	.	.	.	.	.	8D\Lyy	.	32Ree/LLLyy	8Ra\Lyy	.	.	.	.	.	.	.	.	.	.	.	.	.	.	.
.	.	.	.	.	.	.	.	.	.	32Ree/yy	.	.	.	.	.	.	.	.	.	.	.	.	.	.	.	.
.	.	.	.	.	.	.	.	.	.	32Ree/yy	.	.	.	.	.	.	.	.	.	.	.	.	.	.	.	.
.	.	.	.	.	.	.	.	.	.	32Ree/JJyy	.	.	.	.	.	.	.	.	.	.	.	.	.	.	.	.
*	*	*	*	*	*	*	*	*	*	*Xtremolo	*	*	*	*	*	*	*	*	*	*	*	*	*	*	*	*
8G\Jyy	.	8d\]yy	.	8g/yy 8B/yy	.	8g/)yy	.	8G\Jyy	.	8Ree/Jyy	8Ra\Jyy	.	8g/yy	8B\)yy	.	8G\)yy	.	8dd/yy 8g/yy	4rcyyyy	.	8g/)yy	.	4ryy	.	8gg\)	.
!	!	!	!	!	!	!	!	!	!	!	!	!	!	!	!	!	!	!	!	!	!	!	!	!	!LO:TX:t=P:problem=fermata na kresce	!
8ryy	.	8ryy	.	8ryy	.	8ryy	.	8ryy	.	8rFyy	8rEEyyyy	.	8reyy	8rgyy	.	8ryy	.	8ryy	.	.	8ryy	.	.	.	8r;	.
*	*	*	*	*	*	*	*	*	*	*v	*v	*	*	*	*	*	*	*v	*v	*	*	*	*	*	*	*
*	*	*	*	*	*	*	*	*	*	*	*	*v	*v	*	*	*	*	*	*	*	*	*	*	*
!!LO:PB:g=original
=27:|!	=27:|!	=27:|!	=27:|!	=27:|!	=27:|!	=27:|!	=27:|!	=27:|!	=27:|!	=27:|!	=27:|!	=27:|!	=27:|!	=27:|!	=27:|!	=27:|!	=27:|!	=27:|!	=27:|!	=27:|!	=27:|!	=27:|!	=27:|!
!!!OMD: Trio.
*>C	*	*>C	*	*>C	*	*>C	*	*>C	*	*>C	*	*>C	*	*>C	*	*>C	*	*>C	*	*>C	*	*>C	*
*k[]	*	*k[]	*	*k[]	*	*k[]	*	*k[]	*	*k[]	*	*k[]	*	*k[]	*	*k[]	*	*k[]	*	*k[]	*	*k[]	*
*C:	*	*C:	*	*C:	*	*C:	*	*C:	*	*C:	*	*C:	*	*C:	*	*C:	*	*C:	*	*C:	*	*C:	*
*M3/4	*	*M3/4	*	*M3/4	*	*M3/4	*	*M3/4	*	*M3/4	*	*M3/4	*	*M3/4	*	*M3/4	*	*M3/4	*	*M3/4	*	*M3/4	*
!	!LO:DY:rj	!	!	!	!	!	!	!	!	!	!	!	!	!	!	!	!	!	!	!	!	!LO:TX:t=[segno]	!
4C/	p	8r	.	8r	.	8r	p	2.r	.	2.r	.	8ee\ 8e\	.	4r	.	4r	.	2.r	.	8ee|\	.	2.r	.
.	.	8c\	.	8c/	.	8e/ 8G/	.	.	.	.	.	8r	.	.	.	.	.	.	.	8r	.	.	.
*	*	*tremolo	*	*tremolo	*	*tremolo	*	*	*	*	*	*	*	*2\right	*	*	*	*	*	*	*	*	*
!	!	!	!	!	!	!	!	!	!	!	!	!	!	!	!	!	!LO:DY:rj	!	!	!	!	!	!
4r	.	8c\L	.	8c/L	.	8e/L 8G/	.	.	.	.	.	4.gg\ 4.g^<\	.	2c\	.	2ee/ 2g/	p	.	.	4.gg|^<\	.	.	.
.	.	8c\	.	8c/	.	8e/ 8G/	.	.	.	.	.	.	.	.	.	.	.	.	.	.	.	.	.
4r	.	8c\	.	8c/	.	8e/ 8G/	.	.	.	.	.	.	.	.	.	.	.	.	.	.	.	.	.
.	.	8c\J	.	8c/J	.	8e/J 8G/	.	.	.	.	.	8cc/ 8c/	.	.	.	.	.	.	.	8cc|\	.	.	.
=28	=28	=28	=28	=28	=28	=28	=28	=28	=28	=28	=28	=28	=28	=28	=28	=28	=28	=28	=28	=28	=28	=28	=28
.	.	.	.	.	.	.	.	.	.	.	.	(8qcc/ 8qc/	.	.	.	.	.	.	.	(8qcc/	.	(8qccc/	.
4D/	.	8r	.	8r	.	8r	.	2.ryy	.	2.ryy	.	8b/L 8B/)	.	4r	.	4r	.	2.r	.	8b/L)	.	8bb\L)	.
.	.	8d\	.	8B/	.	8f/ 8G/	.	.	.	.	.	8a/J 8A'/	.	.	.	.	.	.	.	8a'/J	.	8aa'\J	.
4r	.	8d\L	.	8B/L	.	8f/L 8G/	.	.	.	.	.	4.b/ 4.B'/	.	2B\	.	2ff/ 2g/	.	.	.	4.b'/	.	4.bb'\	.
.	.	8d\	.	8B/	.	8f/ 8G/	.	.	.	.	.	.	.	.	.	.	.	.	.	.	.	.	.
4r	.	8d\	.	8B/	.	8f/ 8G/	.	.	.	.	.	.	.	.	.	.	.	.	.	.	.	.	.
.	.	8d\J	.	8B/J	.	8f/J 8G/	.	.	.	.	.	8r	.	.	.	.	.	.	.	8r	.	8r	.
=29	=29	=29	=29	=29	=29	=29	=29	=29	=29	=29	=29	=29	=29	=29	=29	=29	=29	=29	=29	=29	=29	=29	=29
*	*	*	*	*	*	*rep	*	*	*	*	*	*	*	*	*	*	*	*	*	*	*	*	*
4GG/	.	8r	.	8r	.	8r	.	2.ryy	.	2.ryy	.	8dd/ 8d/	.	4r	.	4r	.	2.r	.	8dd\	.	2.r	.
.	.	8G/	.	8d/ 8B/	.	8f/ 8G/	.	.	.	.	.	8r	.	.	.	.	.	.	.	8r	.	.	.
4r	.	8G/L	.	8d/L 8B/	.	8f/L 8G/	.	.	.	.	.	4.ff/ 4.f^>/	.	2B\	.	2dd/ 2g/	.	.	.	4.ff^\	.	.	.
.	.	8G/	.	8d/ 8B/	.	8f/ 8G/	.	.	.	.	.	.	.	.	.	.	.	.	.	.	.	.	.
4r	.	8G/	.	8d/ 8B/	.	8f/ 8G/	.	.	.	.	.	.	.	.	.	.	.	.	.	.	.	.	.
.	.	8G/J	.	8d/J 8B/	.	8f/J 8G/	.	.	.	.	.	8b/ 8B/	.	.	.	.	.	.	.	8b\	.	.	.
*	*	*	*	*	*	*Xrep	*	*	*	*	*	*	*	*	*	*	*	*	*	*	*	*	*
=30	=30	=30	=30	=30	=30	=30	=30	=30	=30	=30	=30	=30	=30	=30	=30	=30	=30	=30	=30	=30	=30	=30	=30
.	.	.	.	.	.	.	.	.	.	.	.	(8qdd/ 8qd/	.	.	.	.	.	.	.	(8qdd/	.	(8qddd/	.
4C/	.	8r	.	8r	.	8r	.	2.ryy	.	2.ryy	.	8cc/L 8c/)	.	4r	.	4r	.	2.r	.	8cc\L)	.	8ccc\L)	.
.	.	8c\	.	8c/	.	8e/ 8G/	.	.	.	.	.	8b/J 8B'/	.	.	.	.	.	.	.	8b'\J	.	8bb'\J	.
4r	.	8c\L	.	8c/L	.	8e/L 8G/	.	.	.	.	.	4.cc/ 4.c'/	.	2c\	.	2ee/ 2g/	.	.	.	4.cc'\	.	4.ccc'\	.
.	.	8c\	.	8c/	.	8e/ 8G/	.	.	.	.	.	.	.	.	.	.	.	.	.	.	.	.	.
4r	.	8c\	.	8c/	.	8e/ 8G/	.	.	.	.	.	.	.	.	.	.	.	.	.	.	.	.	.
.	.	8c\J	.	8c/J	.	8e/J 8G/	.	.	.	.	.	8r	.	.	.	.	.	.	.	8r	.	8r	.
*	*	*	*	*	*	*Xtremolo	*	*	*	*	*	*	*	*	*	*	*	*	*	*	*	*	*
!!LO:PB:g=original
=31	=31	=31	=31	=31	=31	=31	=31	=31	=31	=31	=31	=31	=31	=31	=31	=31	=31	=31	=31	=31	=31	=31	=31
*	*	*	*	*	*	*^	*	*	*	*	*	*	*	*	*	*^	*	*	*	*	*	*	*
!	!	!	!	!	!	!LO:TX:a:i:t=Solo	!	!	!	!	!	!	!LO:TX:a:i:t=Solo	!	!	!	!	!	!LO:DY:rj	!	!	!	!	!	!
4E\	.	8r	.	8r	.	(8ff#X/L	4rg	.	2.ryy	.	2.ryy	.	(8f#X/L	.	2.E\	.	2.cc/	2.g\	p	2.r	.	(8f#X/L	.	(8ff#X\L	.
.	.	8c\	.	8g/ 8c/ 8G/	.	8gg/J)	.	.	.	.	.	.	8g/J)	.	.	.	.	.	.	.	.	8g/J)	.	8gg\J)	.
4r	.	8c\L	.	8g/L 8G/	.	(4.ccc/	(>4.cc\	.	.	.	.	.	4.cc\	.	.	.	.	.	.	.	.	4.cc\	.	4.ccc\	.
.	.	8c\	.	8g/ 8G/	.	.	.	.	.	.	.	.	.	.	.	.	.	.	.	.	.	.	.	.	.
4E\	.	8c\	.	8g/ 8G/	.	.	.	.	.	.	.	.	.	.	.	.	.	.	.	.	.	.	.	.	.
.	.	8c\J	.	8g/J 8G/	.	8bb/)	8b\)	.	.	.	.	.	8b\	.	.	.	.	.	.	.	.	8b\	.	8bb\	.
=32	=32	=32	=32	=32	=32	=32	=32	=32	=32	=32	=32	=32	=32	=32	=32	=32	=32	=32	=32	=32	=32	=32	=32	=32	=32
4F\	.	8r	.	8r	.	(16gg#X/LL	4rg	.	2.ryy	.	2.ryy	.	(16g#X/LL	.	2.F\	.	2.dd/	2.a\	.	2.r	.	(16g#X/LL	.	(16gg#X\LL	.
.	.	.	.	.	.	16aa/	.	.	.	.	.	.	16a/	.	.	.	.	.	.	.	.	16a/	.	16aa\	.
.	.	8d\	.	8f/ 8A/	.	16bb/	.	.	.	.	.	.	16b/	.	.	.	.	.	.	.	.	16b/	.	16bb\	.
.	.	.	.	.	.	16aa/JJ	.	.	.	.	.	.	16a/JJ)	.	.	.	.	.	.	.	.	16a/JJ)	.	16aa\JJ	.
4r	.	8d\L	.	8f/L 8A/	.	4.ddd/)	(4.dd\	.	.	.	.	.	4.dd/	.	.	.	.	.	.	.	.	4.dd\	.	4.ddd\)	.
.	.	8d\	.	8f/ 8A/	.	.	.	.	.	.	.	.	.	.	.	.	.	.	.	.	.	.	.	.	.
4D\	.	8d\	.	8f/ 8A/	.	.	.	.	.	.	.	.	.	.	.	.	.	.	.	.	.	.	.	.	.
.	.	8d\J	.	8f/J 8A/	.	8fff/	8ff\)	.	.	.	.	.	8ff/	.	.	.	.	.	.	.	.	8ff\	.	8fff\	.
=33	=33	=33	=33	=33	=33	=33	=33	=33	=33	=33	=33	=33	=33	=33	=33	=33	=33	=33	=33	=33	=33	=33	=33	=33	=33
4G\	.	8r	.	8r	.	8eee/	2.rff	.	2.ryy	.	2.ryy	.	8ee/	.	(>2G\	.	(2ee/	2cc\	.	2.r	.	8ee\	.	8eee\	.
.	.	8c\L	.	8e/L 8G/	.	4ccc^/	.	.	.	.	.	.	4cc^>/	.	.	.	.	.	.	.	.	4cc^<\	.	4ccc^<\	.
4r	.	8c\	.	8e/ 8G/	.	.	.	.	.	.	.	.	.	.	.	.	.	.	.	.	.	.	.	.	.
.	.	8c\J	.	8e/J 8G/	.	(8gg/	.	.	.	.	.	.	(>8g/	.	.	.	.	.	.	.	.	(8g/	.	(8gg\	.
*	*	*Xtremolo	*	*Xtremolo	*	*	*	*	*	*	*	*	*	*	*	*	*	*	*	*	*	*	*	*	*
4GG/	.	8r	.	8r	.	16ff#X/LL	.	.	.	.	.	.	16f#X/LL	.	4GG/)	.	4ff\ 4b\	4rcyy	.	.	.	16f#X/LL	.	16ff#X\LL	.
.	.	.	.	.	.	16gg/	.	.	.	.	.	.	16g/	.	.	.	.	.	.	.	.	16g/	.	16gg\	.
.	.	8B\	.	8f/ 8G/	.	16eee/	.	.	.	.	.	.	16ee/	.	.	.	.	.	.	.	.	16ee/	.	16eee\	.
.	.	.	.	.	.	16ddd/JJ)	.	.	.	.	.	.	16g/JJ	.	.	.	.	.	.	.	.	16dd/JJ)	.	16ddd\JJ)	.
*	*	*	*	*	*	*	*	*	*	*	*	*	*	*	*	*	*v	*v	*	*	*	*	*	*	*
=34	=34	=34	=34	=34	=34	=34	=34	=34	=34	=34	=34	=34	=34	=34	=34	=34	=34	=34	=34	=34	=34	=34	=34	=34
8C/L	.	8c\L	.	8e/L 8G/	.	8ccc'/L	8ee\L	.	2.ryy	.	2.ryy	.	8cc/L 8e/)	.	8C/L	.	8ee\L 8cc\)	.	2.r	.	8cc'\L	.	8ccc'\L	.
8GG/J	.	8B\J	.	8f/J 8G/	.	(16eee/L	16gg\L	.	.	.	.	.	(16ee/L 16g/	.	8GG/J	.	8ff\J 8b\	.	.	.	(16ee\L	.	(16eee\L	.
.	.	.	.	.	.	16ddd/JJ)	16ff\JJ	.	.	.	.	.	16dd/JJ 16f/)	.	.	.	.	.	.	.	16dd\JJ)	.	16ddd\JJ)	.
8r	.	(4B\	.	4f/ 4G/	.	(4ddd/	4ff\	.	.	.	.	.	(4dd/ 4f/	.	(4GG/	.	(4ff\ 4b\	.	.	.	(4dd\	.	(4ddd\	.
8GG/L	.	.	.	.	.	.	.	.	.	.	.	.	.	.	.	.	.	.	.	.	.	.	.	.
8C/J	.	8c\)	.	8e/ 8G/	.	8ccc/)	8ee\	.	.	.	.	.	8cc/ 8e/)	.	8C/)	.	8ee\ 8cc\)	.	.	.	8cc\)	.	8ccc\)	.
!	!	!	!	!	!	!	!	!	!	!	!	!	!	!	!	!	!	!	!	!	!	!	!LO:TX:t=P:problem=fermata na kresce	!
8r	.	8r	.	8r	.	8rdd	8rdd	.	.	.	.	.	8r	.	8r	.	8r	.	.	.	8r	.	8r;	.
*	*	*	*	*	*	*v	*v	*	*	*	*	*	*	*	*	*	*	*	*	*	*	*	*	*
!!LO:PB:g=original
=35:|!	=35:|!	=35:|!	=35:|!	=35:|!	=35:|!	=35:|!	=35:|!	=35:|!	=35:|!	=35:|!	=35:|!	=35:|!	=35:|!	=35:|!	=35:|!	=35:|!	=35:|!	=35:|!	=35:|!	=35:|!	=35:|!	=35:|!	=35:|!
*>D	*	*>D	*	*>D	*	*>D	*	*>D	*	*>D	*	*>D	*	*>D	*	*>D	*	*>D	*	*>D	*	*>D	*
!	!	!	!	!	!	!LO:TX:t=P:problem=kolejne 3 takty oznaczone niebieską kredką literami a, b, c, potem do tych fragmentów będą odsyłać litery w dalszej części partytury	!	!	!	!	!	!	!	!	!	!	!	!	!	!	!	!LO:TX:b:t=Col Vo. 1o. 8va	!
!	!	!	!	!	!	!LO:TX:t=a.:problem=niebieska kredka	!	!	!	!	!	!	!	!	!	!	!	!	!	!	!	!	!
.	.	.	.	.	.	(8qee/	.	.	.	.	.	(8qee/	.	.	.	.	.	(8qee/	.	(8qee/	.	(y8qeee/yy	.
*	*	*	*	*	*	*	*	*	*	*^	*	*^	*	*	*	*^	*	*^	*	*	*	*	*
!	!	!	!LO:DY:rj	!	!LO:DY:rj	!	!	!	!	!	!	!	!	!	!	!	!	!	!	!	!	!	!	!	!	!	!
8D\	.	8r	mf	8r	mf	8dd/L)	.	8D\L	.	8rBB	8rBB	.	8dd/L)	8rg	.	8D\L	.	8r	8rcyy	.	8dd/L)	8rc	.	8dd\L)	.	8ddd/L)yy	.
!	!	!	!	!	!LO:DY:a	!	!	!	!	!	!	!	!	!	!	!	!	!	!	!	!	!	!	!	!	!	!
8D\	sf	8d/ 8G#X/	sf	8e#X/ 8B/	sf	8g#X'/J	sf	8D\J	.	32Ree/LLL	8Ra\L	sf	8g#X'/J	8e#X\	.	8d\J	.	8dd/	8b\	sf	8g#X/J	8e#X\	.	8g#X'\J	.	8gg#X'/Jyy	.
.	.	.	.	.	.	.	.	.	.	32Ree/	.	.	.	.	.	.	.	.	.	.	.	.	.	.	.	.	.
.	.	.	.	.	.	.	.	.	.	32Ree/	.	.	.	.	.	.	.	.	.	.	.	.	.	.	.	.	.
.	.	.	.	.	.	.	.	.	.	32Ree/JJ	.	.	.	.	.	.	.	.	.	.	.	.	.	.	.	.	.
*tremolo	*	*tremolo	*	*tremolo	*	*	*	*	*	*	*	*	*	*	*	*	*	*	*	*	*	*	*	*	*	*	*
8D\L	.	8d/L 8A/	.	8f/L 8c/	.	(4.a/	.	2D\	.	8Ree/J	8Ra\J	.	(4.a'/	4.f\	.	2D\	.	2dd/	2cc\	.	4.a/	(y4.f\	.	(4.a\	.	(y4.aa\yy	.
8D\	.	8d/ 8A/	.	8f/ 8c/	.	.	.	.	.	8rF	8rEEyy	.	.	.	.	.	.	.	.	.	.	.	.	.	.	.	.
8D\	.	8d/ 8A/	.	8f/ 8c/	.	.	.	.	.	4rF	4rEEyy	.	.	.	.	.	.	.	.	.	.	.	.	.	.	.	.
8D\J	.	8d/J 8A/	.	8f/J 8c/	.	8cc\)	.	.	.	.	.	.	8cc/)	8a\	.	.	.	.	.	.	8cc/	8a\)	.	8cc\)	.	8ccc\)yy	.
*Xtremolo	*	*Xtremolo	*	*Xtremolo	*	*	*	*	*	*	*	*	*	*	*	*	*	*	*	*	*	*	*	*	*	*	*
=36	=36	=36	=36	=36	=36	=36	=36	=36	=36	=36	=36	=36	=36	=36	=36	=36	=36	=36	=36	=36	=36	=36	=36	=36	=36	=36	=36
!	!	!	!	!	!	!LO:TX:t=b.:problem=niebieska kredka	!	!	!	!	!	!	!	!	!	!	!	!	!	!	!	!	!	!	!	!	!
*	*	*	*	*	*	*	*	*	*	*rep	*rep	*	*	*	*	*	*	*	*	*	*	*	*	*	*	*	*
.	.	.	.	.	.	(8qee/	.	.	.	.	.	.	(8qee/	.	.	.	.	.	.	.	(8qee/	.	.	(8qee/	.	(y8qeee/yy	.
8D\	.	8r	.	8r	.	8dd\L)	.	8D\L	.	8rBB	8rBB	.	8dd/L)	8rg	.	8D\L	.	8r	8rc	.	8dd/L)	8rc	.	8dd\L)	.	8ddd\L)yy	.
8D\	sf	8e\ 8c#X\	sf	8g/ 8A#X/	sf	8a#X'\J	.	8D\J	.	32Ree/LLL	8Ra\L	sf	8a#X'/J	8g\	.	8d\J	.	8ee\ 8cc#X\	8rcyy	sf	8a#X/J	8g\	.	8a#X'\J	.	8aa#X'\Jyy	.
.	.	.	.	.	.	.	.	.	.	32Ree/	.	.	.	.	.	.	.	.	.	.	.	.	.	.	.	.	.
.	.	.	.	.	.	.	.	.	.	32Ree/	.	.	.	.	.	.	.	.	.	.	.	.	.	.	.	.	.
.	.	.	.	.	.	.	.	.	.	32Ree/JJ	.	.	.	.	.	.	.	.	.	.	.	.	.	.	.	.	.
*tremolo	*	*tremolo	*	*tremolo	*	*	*	*	*	*	*	*	*	*	*	*	*	*	*	*	*	*	*	*	*	*	*
8D\L	.	8d\L	.	8g/L 8B/	.	4.b\	.	2D\	.	8Ree/J	8Ra\J	.	2b/	2g\	.	2D\	.	2dd/	2dd\	.	4.b/	2f\	.	4.b'\	.	4.bb\yy	.
8D\	.	8d\	.	8g/ 8B/	.	.	.	.	.	8rF	8rEEyy	.	.	.	.	.	.	.	.	.	.	.	.	.	.	.	.
8D\	.	8d\	.	8g/ 8B/	.	.	.	.	.	4rF	4rEEyy	.	.	.	.	.	.	.	.	.	.	.	.	.	.	.	.
8D\J	.	8d\J	.	8g/J 8B/	.	(16dd\LL	.	.	.	.	.	.	.	.	.	.	.	.	.	.	(16dd/LL	.	.	8r	.	(y16ddd\LLyy	.
.	.	.	.	.	.	16gg\JJ)	.	.	.	.	.	.	.	.	.	.	.	.	.	.	16gg/JJ)	.	.	.	.	16ggg\JJ)yy	.
*Xtremolo	*	*Xtremolo	*	*Xtremolo	*	*	*	*	*	*Xrep	*Xrep	*	*	*	*	*	*	*	*	*	*	*	*	*	*	*	*
*	*	*	*	*	*	*	*	*	*	*	*	*	*v	*v	*	*	*	*	*	*	*	*	*	*	*	*	*
=37	=37	=37	=37	=37	=37	=37	=37	=37	=37	=37	=37	=37	=37	=37	=37	=37	=37	=37	=37	=37	=37	=37	=37	=37	=37	=37
!	!LO:DY:rj	!	!	!	!LO:DY:rj	!LO:TX:t=c.:problem=niebieska kredka	!	!	!	!	!	!LO:DY:rj	!	!	!	!LO:DY:rj	!	!	!	!	!	!	!	!	!	!
8D\	f	8r	.	8r	f	(16gg\LL	.	8D\	.	8r	4Ra\	f	2.r	.	8r	f	8r	8r	.	(16gg/LL	8r	f	2.r	.	(y16ggg\LLyy	.
.	.	.	.	.	.	16ff#X\)	.	.	.	.	.	.	.	.	.	.	.	.	.	16ff#X/)	.	.	.	.	16fff#X\)yy	.
*	*	*	*	*	*	*	*	*	*	*tremolo	*	*	*	*	*	*	*	*	*	*	*	*	*	*	*	*
8r	.	8d/ 8A/	.	8f#X/ 8c/	.	(16ff#\	.	8r	.	32Ree/LLL	.	.	.	.	8A\	.	8dd/	8cc\	.	(16ff#/	8f#X\	.	.	.	(y16fff#\yy	.
.	.	.	.	.	.	.	.	.	.	32Ree/	.	.	.	.	.	.	.	.	.	.	.	.	.	.	.	.
.	.	.	.	.	.	16ee\JJ)	.	.	.	32Ree/	.	.	.	.	.	.	.	.	.	16ee/JJ)	.	.	.	.	16eee\JJ)yy	.
.	.	.	.	.	.	.	.	.	.	32Ree/JJ	.	.	.	.	.	.	.	.	.	.	.	.	.	.	.	.
*	*	*rep	*	*rep	*	*	*	*	*	*Xtremolo	*	*	*	*	*rep	*	*rep	*rep	*	*	*rep	*	*	*	*	*
8D\	.	8r	.	8r	.	(16ee\LL	.	8D\	.	8Ree/J	4Ra\	.	.	.	8r	.	8r	8r	.	(>16ee/LL	8r	.	.	.	(y16eee\LLyy	.
.	.	.	.	.	.	16dd\)	.	.	.	.	.	.	.	.	.	.	.	.	.	16dd/)	.	.	.	.	16ddd\)yy	.
*	*	*	*	*	*	*	*	*	*	*tremolo	*	*	*	*	*	*	*	*	*	*	*	*	*	*	*	*
8r	.	8d/ 8A/	.	8f#/ 8c/	.	(16dd\	.	8r	.	32Ree/LLL	.	.	.	.	8A\	.	8dd/	8cc\	.	(>16dd/	8f#\	.	.	.	(y16ddd\yy	.
.	.	.	.	.	.	.	.	.	.	32Ree/	.	.	.	.	.	.	.	.	.	.	.	.	.	.	.	.
.	.	.	.	.	.	16cc\JJ)	.	.	.	32Ree/	.	.	.	.	.	.	.	.	.	16cc/JJ)	.	.	.	.	16ccc\JJ)yy	.
.	.	.	.	.	.	.	.	.	.	32Ree/JJ	.	.	.	.	.	.	.	.	.	.	.	.	.	.	.	.
*	*	*Xrep	*	*Xrep	*	*	*	*	*	*Xtremolo	*	*	*	*	*Xrep	*	*Xrep	*Xrep	*	*	*Xrep	*	*	*	*	*
*	*	*rep	*	*rep	*	*	*	*	*	*	*	*	*	*	*rep	*	*rep	*rep	*	*	*rep	*	*	*	*	*
8D\	.	8r	.	8r	.	(16cc\LL	.	8D\	.	8Ree/	4Ra\	.	.	.	8r	.	8r	8r	.	(>16cc/LL	8r	.	.	.	(y16ccc\LLyy	.
.	.	.	.	.	.	16b\)	.	.	.	.	.	.	.	.	.	.	.	.	.	16b/)	.	.	.	.	16bb\)yy	.
*	*	*	*	*	*	*	*	*	*	*tremolo	*	*	*	*	*	*	*	*	*	*	*	*	*	*	*	*
8r	.	8d/ 8A/	.	8f#/ 8c/	.	(16b\	.	8r	.	32Ree/LL	.	.	.	.	8A\	.	8dd/	8cc\	.	(>16b/	8f#\	.	.	.	(y16bb\yy	.
.	.	.	.	.	.	.	.	.	.	32Ree/	.	.	.	.	.	.	.	.	.	.	.	.	.	.	.	.
.	.	.	.	.	.	16a\JJ)	.	.	.	32Ree/	.	.	.	.	.	.	.	.	.	16a/JJ)	.	.	.	.	16aa\JJ)yy	.
.	.	.	.	.	.	.	.	.	.	32Ree/JJJ	.	.	.	.	.	.	.	.	.	.	.	.	.	.	.	.
*	*	*Xrep	*	*Xrep	*	*	*	*	*	*Xtremolo	*	*	*	*	*Xrep	*	*Xrep	*Xrep	*	*	*Xrep	*	*	*	*	*
*	*	*	*	*	*	*	*	*	*	*	*	*	*	*	*	*	*v	*v	*	*	*	*	*	*	*	*
!!LO:PB:g=original
=38	=38	=38	=38	=38	=38	=38	=38	=38	=38	=38	=38	=38	=38	=38	=38	=38	=38	=38	=38	=38	=38	=38	=38	=38	=38
*	*	*	*	*	*	*	*	*	*	*	*	*	*^	*	*	*	*	*	*	*	*	*	*	*	*
8G\	.	8r	.	8r	.	(16a#X/LL	.	8G\	.	8Ree/L	4Ra\	.	4r	2.rd	.	8r	.	8r	.	(16a#X/LL	8r	.	4r	.	(y16aa#X/LLyy	.
.	.	.	.	.	.	16b/	.	.	.	.	.	.	.	.	.	.	.	.	.	16b/	.	.	.	.	16bb/yy	.
*	*	*	*	*	*	*	*	*	*	*tremolo	*	*	*	*	*	*	*	*	*	*	*	*	*	*	*	*
8r	.	8d/ 8G/	.	8g/ 8B/	.	16dd/	.	8r	.	32Ree/LL	.	.	.	.	.	8B\	.	8dd/ 8g/	.	16dd/	8g\	.	.	.	16ddd/yy	.
.	.	.	.	.	.	.	.	.	.	32Ree/	.	.	.	.	.	.	.	.	.	.	.	.	.	.	.	.
.	.	.	.	.	.	16b/JJ)	.	.	.	32Ree/	.	.	.	.	.	.	.	.	.	16b/JJ)	.	.	.	.	16bb/JJ)yy	.
.	.	.	.	.	.	.	.	.	.	32Ree/JJJ	.	.	.	.	.	.	.	.	.	.	.	.	.	.	.	.
*	*	*rep	*	*rep	*	*	*	*	*	*Xtremolo	*	*	*	*	*	*	*	*	*	*	*	*	*	*	*	*
8G\	.	8r	.	8r	.	4.g/	.	8G\	.	8Ree/L	4Ra\	.	4r	.	.	8r	.	8r	.	4.g/	8r	.	4r	.	4.gg\yy	.
*	*	*	*	*	*	*	*	*	*	*tremolo	*	*	*	*	*	*	*	*	*	*	*	*	*	*	*	*
8r	.	8d/ 8G/	.	8g/ 8B/	.	.	.	8r	.	32Ree/LL	.	.	.	.	.	8B\	.	8dd/ 8g/	.	.	8g\	.	.	.	.	.
.	.	.	.	.	.	.	.	.	.	32Ree/	.	.	.	.	.	.	.	.	.	.	.	.	.	.	.	.
.	.	.	.	.	.	.	.	.	.	32Ree/	.	.	.	.	.	.	.	.	.	.	.	.	.	.	.	.
.	.	.	.	.	.	.	.	.	.	32Ree/JJJ	.	.	.	.	.	.	.	.	.	.	.	.	.	.	.	.
*	*	*Xrep	*	*Xrep	*	*	*	*	*	*Xtremolo	*	*	*	*	*	*	*	*	*	*	*	*	*	*	*	*
*	*	*rep	*	*rep	*	*	*	*	*	*	*	*	*	*	*	*	*	*	*	*	*	*	*	*	*	*
8G\	.	8r	.	8r	.	.	.	8G\	.	4Ree/	4Ra\	.	8r	.	.	8r	.	8r	.	.	8r	.	8r	.	.	.
8r	.	8d/ 8G/	.	8g/ 8B/	.	8b/	.	8r	.	.	.	.	8b/	.	.	8B\	.	8dd/ 8g/	.	8b/	8g\	.	8b\	.	8bb\yy	.
*	*	*Xrep	*	*Xrep	*	*	*	*	*	*	*	*	*	*	*	*	*	*	*	*	*	*	*	*	*	*
=39	=39	=39	=39	=39	=39	=39	=39	=39	=39	=39	=39	=39	=39	=39	=39	=39	=39	=39	=39	=39	=39	=39	=39	=39	=39	=39
!	!	!	!	!	!	!LO:TX:t=P:problem=na tej stronie zapisana tylko partia Vl 1, reszta partii wskazana odsyłaczami a,b,c	!	!	!	!	!	!	!	!	!	!	!	!	!	!	!	!	!	!	!LO:TX:b:t=Col Vo. 1o. 8va	!
!	!	!	!	!	!	!LO:TX:t=a.:problem=niebieska kredka	!	!	!	!	!	!	!	!	!	!	!	!	!	!	!	!	!	!	!	!
.	.	.	.	.	.	(8qee/	.	.	.	.	.	.	(y8qee/yy	.	.	.	.	.	.	(y8qee/yy	.	.	(y8qee/yy	.	(y8qeee/yy	.
*	*	*	*	*	*	*	*	*	*	*	*	*	*	*	*	*	*	*^	*	*	*	*	*	*	*	*
!	!	!	!LO:DY:rj	!	!LO:DY:rj	!	!	!	!	!	!	!	!	!	!	!	!	!	!	!	!	!	!	!	!	!	!
8D\yy	.	8ryy	mfy	8ryy	mfy	8dd/L)	.	8D\Lyy	.	8rBByy	8rBByy	.	8dd/L)yy	8rgyy	.	8D\Lyy	.	8ryy	8rcyyyy	.	8dd/L)yy	8rcyy	.	8dd\L)yy	.	8ddd/L)yy	.
!	!	!	!	!	!LO:DY:a	!	!LO:DY:a	!	!	!	!	!	!	!	!	!	!	!	!	!	!	!	!	!	!	!	!
8D\yy	sfy	8d/yy 8G#X/yy	sfy	8e#Xyy/ 8B/yy	sfy	8g#X'/J	sf	8D\Jyy	.	32Ree/LLLyy	8Ra\Lyy	sfy	8g#X'/Jyy	8e#X\yy	.	8d\Jyy	.	8dd/yy	8b\yy	sfy	8g#X/Jyy	8e#X\yy	.	8g#X'\Jyy	.	8gg#X'/Jyy	.
.	.	.	.	.	.	.	.	.	.	32Ree/yy	.	.	.	.	.	.	.	.	.	.	.	.	.	.	.	.	.
.	.	.	.	.	.	.	.	.	.	32Ree/yy	.	.	.	.	.	.	.	.	.	.	.	.	.	.	.	.	.
.	.	.	.	.	.	.	.	.	.	32Ree/JJyy	.	.	.	.	.	.	.	.	.	.	.	.	.	.	.	.	.
*tremolo	*	*tremolo	*	*tremolo	*	*	*	*	*	*	*	*	*	*	*	*	*	*	*	*	*	*	*	*	*	*	*
8D\Lyy	.	8d/Lyy 8A/yy	.	8f/Lyy 8c/yy	.	4.a/	.	2D\yy	.	8Ree/Jyy	8Ra\Jyy	.	(y4.a'/yy	4.f\yy	.	2D\yy	.	2dd/yy	2cc\yy	.	4.a/yy	(y4.f\yy	.	(y4.a\yy	.	(y4.aa\yy	.
8D\yy	.	8d/yy 8A/yy	.	8f/yy 8c/yy	.	.	.	.	.	8rFyy	8rEEyyyy	.	.	.	.	.	.	.	.	.	.	.	.	.	.	.	.
8D\yy	.	8d/yy 8A/yy	.	8f/yy 8c/yy	.	.	.	.	.	4rFyy	4rEEyyyy	.	.	.	.	.	.	.	.	.	.	.	.	.	.	.	.
8D\Jyy	.	8d/Jyy 8A/yy	.	8f/Jyy 8c/yy	.	8cc\	.	.	.	.	.	.	8cc/)yy	8a\yy	.	.	.	.	.	.	8cc/yy	8a\)yy	.	8cc\)yy	.	8ccc\)yy	.
*Xtremolo	*	*Xtremolo	*	*Xtremolo	*	*	*	*	*	*	*	*	*	*	*	*	*	*	*	*	*	*	*	*	*	*	*
=40	=40	=40	=40	=40	=40	=40	=40	=40	=40	=40	=40	=40	=40	=40	=40	=40	=40	=40	=40	=40	=40	=40	=40	=40	=40	=40	=40
!	!	!	!	!	!	!LO:TX:t=b.:problem=niebieska kredka	!	!	!	!	!	!	!	!	!	!	!	!	!	!	!	!	!	!	!	!	!
*	*	*	*	*	*	*	*	*	*	*repy	*repy	*	*	*	*	*	*	*	*	*	*	*	*	*	*	*	*
.	.	.	.	.	.	(8qee/	.	.	.	.	.	.	(y8qee/yy	.	.	.	.	.	.	.	(y8qee/yy	.	.	(y8qee/yy	.	(y8qeee/yy	.
8D\yy	.	8ryy	.	8ryy	.	8dd\L)	.	8D\Lyy	.	8rBByy	8rBByy	.	8dd/L)yy	8rgyy	.	8D\Lyy	.	8ryy	8ryy	.	8dd/L)yy	8rcyy	.	8dd\L)yy	.	8ddd\L)yy	.
!	!	!	!	!	!	!	!LO:DY:a	!	!	!	!	!	!	!	!	!	!	!	!	!	!	!	!	!	!	!	!
8D\yy	sfy	8e\yy 8c#X\yy	sfy	8g/yy 8A#X/yy	sfy	8a#X'\J	sf	8D\Jyy	.	32Ree/LLLyy	8Ra\Lyy	sfy	8a#X'/Jyy	8g\yy	.	8d\Jyy	.	8ee\yy 8cc#X\yy	8rcyyyy	sfy	8a#X/Jyy	8g\yy	.	8a#X'\Jyy	.	8aa#X'\Jyy	.
.	.	.	.	.	.	.	.	.	.	32Ree/yy	.	.	.	.	.	.	.	.	.	.	.	.	.	.	.	.	.
.	.	.	.	.	.	.	.	.	.	32Ree/yy	.	.	.	.	.	.	.	.	.	.	.	.	.	.	.	.	.
.	.	.	.	.	.	.	.	.	.	32Ree/JJyy	.	.	.	.	.	.	.	.	.	.	.	.	.	.	.	.	.
*tremolo	*	*tremolo	*	*tremolo	*	*	*	*	*	*	*	*	*	*	*	*	*	*	*	*	*	*	*	*	*	*	*
8D\Lyy	.	8d\Lyy	.	8g/Lyy 8B/yy	.	4.b\	.	2D\yy	.	8Ree/Jyy	8Ra\Jyy	.	2b/yy	2g\yy	.	2D\yy	.	2dd/yy	2dd\yy	.	4.b/yy	2f\yy	.	4.b'\yy	.	4.bb\yy	.
8D\yy	.	8d\yy	.	8g/yy 8B/yy	.	.	.	.	.	8rFyy	8rEEyyyy	.	.	.	.	.	.	.	.	.	.	.	.	.	.	.	.
8D\yy	.	8d\yy	.	8g/yy 8B/yy	.	.	.	.	.	4rFyy	4rEEyyyy	.	.	.	.	.	.	.	.	.	.	.	.	.	.	.	.
8D\Jyy	.	8d\Jyy	.	8g/Jyy 8B/yy	.	(16dd\LL	<	.	.	.	.	.	.	.	.	.	.	.	.	.	(y16dd/LLyy	.	.	8ryy	.	(y16ddd\LLyy	.
.	.	.	.	.	.	16gg\JJ)	[[	.	.	.	.	.	.	.	.	.	.	.	.	.	16gg/JJ)yy	.	.	.	.	16ggg\JJ)yy	.
*Xtremolo	*	*Xtremolo	*	*Xtremolo	*	*	*	*	*	*Xrep	*Xrep	*	*	*	*	*	*	*	*	*	*	*	*	*	*	*	*
*	*	*	*	*	*	*	*	*	*	*	*	*	*v	*v	*	*	*	*	*	*	*	*	*	*	*	*	*
!!LO:PB:g=original
=41	=41	=41	=41	=41	=41	=41	=41	=41	=41	=41	=41	=41	=41	=41	=41	=41	=41	=41	=41	=41	=41	=41	=41	=41	=41	=41
!	!LO:DY:rj	!	!	!	!LO:DY:rj	!LO:TX:t=c:problem=niebieska kredka	!	!	!	!	!	!LO:DY:rj	!	!	!	!LO:DY:rj	!	!	!	!	!	!	!	!	!	!
8D\yy	fy	8ryy	.	8ryy	fy	(16gg\LL	.	8D\yy	.	8ryy	4Ra\yy	fy	2.ryy	.	8ryy	fy	8ryy	8ryy	.	(y16gg/LLyy	8ryy	fy	2.ryy	.	(y16ggg\LLyy	.
.	.	.	.	.	.	16ff#X\)	.	.	.	.	.	.	.	.	.	.	.	.	.	16ff#X/)yy	.	.	.	.	16fff#X\)yy	.
*	*	*	*	*	*	*	*	*	*	*tremolo	*	*	*	*	*	*	*	*	*	*	*	*	*	*	*	*
8ryy	.	8d/yy 8A/yy	.	8f#X/yy 8c/yy	.	(16ff#\	.	8ryy	.	32Ree/LLLyy	.	.	.	.	8A\yy	.	8dd/yy	8cc\yy	.	(y16ff#/yy	8f#X\yy	.	.	.	(y16fff#\yy	.
.	.	.	.	.	.	.	.	.	.	32Ree/yy	.	.	.	.	.	.	.	.	.	.	.	.	.	.	.	.
.	.	.	.	.	.	16ee\JJ)	.	.	.	32Ree/yy	.	.	.	.	.	.	.	.	.	16ee/JJ)yy	.	.	.	.	16eee\JJ)yy	.
.	.	.	.	.	.	.	.	.	.	32Ree/JJyy	.	.	.	.	.	.	.	.	.	.	.	.	.	.	.	.
*	*	*repy	*	*repy	*	*	*	*	*	*Xtremolo	*	*	*	*	*repy	*	*repy	*repy	*	*	*repy	*	*	*	*	*
8D\yy	.	8ryy	.	8ryy	.	(16ee\LL	.	8D\yy	.	8Ree/Jyy	4Ra\yy	.	.	.	8ryy	.	8ryy	8ryy	.	(y>16ee/LLyy	8ryy	.	.	.	(y16eee\LLyy	.
.	.	.	.	.	.	16dd\)	.	.	.	.	.	.	.	.	.	.	.	.	.	16dd/)yy	.	.	.	.	16ddd\)yy	.
*	*	*	*	*	*	*	*	*	*	*tremolo	*	*	*	*	*	*	*	*	*	*	*	*	*	*	*	*
8ryy	.	8d/yy 8A/yy	.	8f#/yy 8c/yy	.	(16dd\	.	8ryy	.	32Ree/LLLyy	.	.	.	.	8A\yy	.	8dd/yy	8cc\yy	.	(y>16dd/yy	8f#\yy	.	.	.	(y16ddd\yy	.
.	.	.	.	.	.	.	.	.	.	32Ree/yy	.	.	.	.	.	.	.	.	.	.	.	.	.	.	.	.
.	.	.	.	.	.	16cc\JJ)	.	.	.	32Ree/yy	.	.	.	.	.	.	.	.	.	16cc/JJ)yy	.	.	.	.	16ccc\JJ)yy	.
.	.	.	.	.	.	.	.	.	.	32Ree/JJyy	.	.	.	.	.	.	.	.	.	.	.	.	.	.	.	.
*	*	*Xrep	*	*Xrep	*	*	*	*	*	*Xtremolo	*	*	*	*	*Xrep	*	*Xrep	*Xrep	*	*	*Xrep	*	*	*	*	*
*	*	*repy	*	*repy	*	*	*	*	*	*	*	*	*	*	*repy	*	*repy	*repy	*	*	*repy	*	*	*	*	*
8D\yy	.	8ryy	.	8ryy	.	(16cc\LL	.	8D\yy	.	8Ree/yy	4Ra\yy	.	.	.	8ryy	.	8ryy	8ryy	.	(y>16cc/LLyy	8ryy	.	.	.	(y16ccc\LLyy	.
.	.	.	.	.	.	16b\)	.	.	.	.	.	.	.	.	.	.	.	.	.	16b/)yy	.	.	.	.	16bb\)yy	.
*	*	*	*	*	*	*	*	*	*	*tremolo	*	*	*	*	*	*	*	*	*	*	*	*	*	*	*	*
8ryy	.	8d/yy 8A/yy	.	8f#/yy 8c/yy	.	(16b\	.	8ryy	.	32Ree/LLyy	.	.	.	.	8A\yy	.	8dd/yy	8cc\yy	.	(y>16b/yy	8f#\yy	.	.	.	(y16bb\yy	.
.	.	.	.	.	.	.	.	.	.	32Ree/yy	.	.	.	.	.	.	.	.	.	.	.	.	.	.	.	.
.	.	.	.	.	.	16a\JJ)	.	.	.	32Ree/yy	.	.	.	.	.	.	.	.	.	16a/JJ)yy	.	.	.	.	16aa\JJ)yy	.
.	.	.	.	.	.	.	.	.	.	32Ree/JJJyy	.	.	.	.	.	.	.	.	.	.	.	.	.	.	.	.
*	*	*Xrep	*	*Xrep	*	*	*	*	*	*Xtremolo	*	*	*	*	*Xrep	*	*Xrep	*Xrep	*	*	*Xrep	*	*	*	*	*
*	*	*	*	*	*	*	*	*	*	*v	*v	*	*	*	*	*	*v	*v	*	*	*	*	*	*	*	*
!!LO:PB:g=original
=42	=42	=42	=42	=42	=42	=42	=42	=42	=42	=42	=42	=42	=42	=42	=42	=42	=42	=42	=42	=42	=42	=42	=42	=42
*	*	*	*	*	*	*	*	*^	*	*	*	*	*	*^	*	*	*	*	*	*	*	*	*	*
8G\	.	8d/ 8G/	.	8g/ 8B/	.	8g/	.	8G/	8C\	.	8Ree\	.	8r	.	8G/	8G\	.	8dd/ 8g/	.	8g/	8g\	.	8r	.	8gg\	.
!	!	!	!	!	!	!	!	!	!	!	!	!	!LO:TX:t=P:problem=partie trąbki i puzonu zamienione, podpisana tylko partia trąbek	!	!	!	!	!	!	!	!	!	!	!	!	!
!	!	!	!	!	!	!	!	!	!	!	!	!	!LO:TX:a:i:t=Trombe	!	!	!	!	!	!	!	!	!	!	!	!	!
8r	.	8r	.	8r	.	8r	.	8r	8rEEyy	.	8r	.	4gg\ 4g^<\	.	8r	8rEEyy	.	8r	.	8r	8rcyy	.	4gg^<\	.	4eee^<\	.
4r	.	4r	.	4r	.	4r	.	4r	4rEEyy	.	4r	.	.	.	4r	4rEEyy	.	4ff\ 4dd\	.	4r	4rcyy	.	.	.	.	.
.	.	.	.	.	.	.	.	.	.	.	.	.	4g/ 4G^/	.	.	.	.	.	.	.	.	.	4g^</	.	4gg^<\	.
!	!	!	!	!	!	!LO:TX:b:i:t=D'al segno \nal fine  \nDacapo Polonez\nal fine  \ne poi la Coda	!	!	!	!	!	!	!	!	!	!	!	!	!	!	!	!	!	!	!	!
!	!	!	!	!	!	!LO:TX:t=[segno]	!	!	!	!	!	!	!	!	!	!	!	!	!	!	!	!	!	!	!	!
!	!	!	!	!	!	!LO:TX:t=P:problem=znak segno na kresce taktowej	!	!	!	!	!	!	!	!	!	!	!	!	!	!	!	!	!	!	!	!
4r	.	4r	.	4r	.	4r	.	4r	4rEEyy	.	4r	.	.	.	4r	4rEEyy	.	8ee\L 8cc\	.	4r	4rcyy	.	.	.	.	.
!	!	!	!	!	!	!	!	!	!	!	!	!	!	!	!	!	!	!	!	!	!	!	!	!	!LO:TX:t=[segno]	!
!	!	!	!	!	!	!	!	!	!	!	!	!	!	!	!	!	!	!	!	!	!	!	!	!	!LO:TX:t=P:problem=znak segno na kresce taktowej	!
.	.	.	.	.	.	.	.	.	.	.	.	.	8ffn\ 8fn'\	.	.	.	.	8dd\J 8g\	.	.	.	.	8ffn\	.	8dddn\	.
*	*	*	*	*	*	*	*	*v	*v	*	*	*	*	*	*v	*v	*	*	*	*v	*v	*	*	*	*	*
!!LO:PB:g=original
=43||	=43||	=43||	=43||	=43||	=43||	=43||	=43||	=43||	=43||	=43||	=43||	=43||	=43||	=43||	=43||	=43||	=43||	=43||	=43||	=43||	=43||	=43||	=43||
!!!OMD: Coda
*>E	*	*>E	*	*>E	*	*>E	*	*>E	*	*>E	*	*>E	*	*>E	*	*>E	*	*>E	*	*>E	*	*>E	*
*k[f#]	*	*k[f#]	*	*k[f#]	*	*k[f#]	*	*k[f#]	*	*k[f#]	*	*k[f#]	*	*k[f#]	*	*k[f#]	*	*k[f#]	*	*k[f#]	*	*k[f#]	*
*G:	*	*G:	*	*G:	*	*G:	*	*G:	*	*G:	*	*G:	*	*G:	*	*G:	*	*G:	*	*G:	*	*G:	*
!	!	!	!	!	!	!	!	!	!	!	!	!	!	!	!	!	!	!	!	!	!	!LO:TX:t=P:problem=brak zmiany tonacji, a chyba powinien być	!
!	!	!	!	!	!	!	!LO:DY:rj	!	!LO:DY:a:rj	!	!	!	!	!	!	!	!	!	!	!	!	!	!
8GG/	p	8r	.	8r	.	8r	p	8G\	p	2.r	.	2.r	.	8r	.	8r	.	2.ryy	.	(16ffn\LL	.	(16fffn\LL	.
.	.	.	.	.	.	.	.	.	.	.	.	.	.	.	.	.	.	.	.	16ee\)	.	16eee\)	.
8r	.	8d/ 8G/	.	8B/	.	8fn/ 8G/	.	8r	.	.	.	.	.	8B\	.	8dd/ 8g/	.	.	.	(16ee\	.	(16eee\	.
.	.	.	.	.	.	.	.	.	.	.	.	.	.	.	.	.	.	.	.	16dd\JJ)	.	16ddd\JJ)	.
*rep	*	*rep	*	*rep	*	*rep	*	*rep	*	*	*	*	*	*	*	*rep	*	*	*	*	*	*	*
8GG/	.	8r	.	8r	.	8r	.	8G\	.	.	.	.	.	8r	.	8r	.	.	.	(16ff\LL	.	(16fff\LL	.
.	.	.	.	.	.	.	.	.	.	.	.	.	.	.	.	.	.	.	.	16ee\)	.	16eee\)	.
8r	.	8d/ 8G/	.	8B/	.	8f/ 8G/	.	8r	.	.	.	.	.	8B\	.	8dd/ 8g/	.	.	.	(16ee\	.	(16eee\	.
.	.	.	.	.	.	.	.	.	.	.	.	.	.	.	.	.	.	.	.	16dd\JJ)	.	16ddd\JJ)	.
*Xrep	*	*Xrep	*	*Xrep	*	*Xrep	*	*Xrep	*	*	*	*	*	*	*	*Xrep	*	*	*	*	*	*	*
*rep	*	*rep	*	*rep	*	*rep	*	*rep	*	*	*	*	*	*	*	*rep	*	*	*	*	*	*	*
8GG/	.	8r	.	8r	.	8r	.	8G\	.	.	.	.	.	8r	.	8r	.	.	.	(16cc\LL	.	(16ccc\LL	.
.	.	.	.	.	.	.	.	.	.	.	.	.	.	.	.	.	.	.	.	16b\	.	16bb\	.
8r	.	8d/ 8G/	.	8B/	.	8f/ 8G/	.	8r	.	.	.	.	.	8f#\	.	8dd/ 8g/	.	.	.	16a\	.	16aa\	.
.	.	.	.	.	.	.	.	.	.	.	.	.	.	.	.	.	.	.	.	16b\JJ)	.	16bb\JJ)	.
*Xrep	*	*Xrep	*	*Xrep	*	*Xrep	*	*Xrep	*	*	*	*	*	*	*	*Xrep	*	*	*	*	*	*	*
=44	=44	=44	=44	=44	=44	=44	=44	=44	=44	=44	=44	=44	=44	=44	=44	=44	=44	=44	=44	=44	=44	=44	=44
8C/	.	8r	.	8r	.	8r	.	8C/	.	2.r	.	2.r	.	8r	.	8r	.	2.ryy	.	(16gg\LL	.	(16ggg\LL	.
.	.	.	.	.	.	.	.	.	.	.	.	.	.	.	.	.	.	.	.	16ffn\)	.	16fffn\)	.
8r	.	8c\	.	8c/	.	8e/ 8G/	.	8r	.	.	.	.	.	8G\	.	8ee\ 8cc\	.	.	.	(16ff\	.	(16fff\	.
.	.	.	.	.	.	.	.	.	.	.	.	.	.	.	.	.	.	.	.	16ee\JJ)	.	16eee\JJ)	.
*rep	*	*rep	*	*rep	*	*rep	*	*rep	*	*	*	*	*	*rep	*	*rep	*	*	*	*	*	*	*
8C/	.	8r	.	8r	.	8r	.	8C/	.	.	.	.	.	8r	.	8r	.	.	.	(16gg\LL	.	(16ggg\LL	.
.	.	.	.	.	.	.	.	.	.	.	.	.	.	.	.	.	.	.	.	16ff\)	.	16fff\)	.
8r	.	8c\	.	8c/	.	8e/ 8G/	.	8r	.	.	.	.	.	8G\	.	8ee\ 8cc\	.	.	.	(16ff\	.	(16fff\	.
.	.	.	.	.	.	.	.	.	.	.	.	.	.	.	.	.	.	.	.	16ee\JJ)	.	16eee\JJ)	.
*Xrep	*	*Xrep	*	*Xrep	*	*Xrep	*	*Xrep	*	*	*	*	*	*Xrep	*	*Xrep	*	*	*	*	*	*	*
*rep	*	*rep	*	*rep	*	*rep	*	*rep	*	*	*	*	*	*rep	*	*rep	*	*	*	*	*	*	*
8C/	.	8r	.	8r	.	8r	.	8C/	.	.	.	.	.	8r	.	8r	.	.	.	(16dd\LL	.	(16ddd\LL	.
.	.	.	.	.	.	.	.	.	.	.	.	.	.	.	.	.	.	.	.	16cc\	.	16ccc\	.
8r	.	8c\	.	8c/	.	8e/ 8G/	.	8r	.	.	.	.	.	8G\	.	8ee\ 8cc\	.	.	.	16b\	.	16bb\	.
.	.	.	.	.	.	.	.	.	.	.	.	.	.	.	.	.	.	.	.	16cc\JJ)	.	16ccc\JJ)	.
*Xrep	*	*Xrep	*	*Xrep	*	*Xrep	*	*Xrep	*	*	*	*	*	*Xrep	*	*Xrep	*	*	*	*	*	*	*
=45	=45	=45	=45	=45	=45	=45	=45	=45	=45	=45	=45	=45	=45	=45	=45	=45	=45	=45	=45	=45	=45	=45	=45
*	*	*	*	*	*	*	*	*	*	*	*	*	*	*	*	*	*	*^	*	*	*	*	*
8Fn\	.	8c\	.	8c/	.	8fn/ 8A/	.	8Fn\	.	2.ryy	.	4r	.	8A\	.	8ff#\ 8cc\	.	4raayy	4rcyy	.	8a/	.	8aa\	.
8r	.	8r	f	8r	.	8r	.	8r	.	.	.	.	.	8r	.	8r	f	.	.	.	8r	.	8r	f
!	!LO:DY:rj	!	!	!	!	!	!LO:DY:rj	!	!LO:DY:rj	!	!	!	!	!	!	!	!	!	!	!	!	!	!	!
2F#X\	f	2A/ 2F#X^/	.	2c/	.	2a/ 2e-X/	f	2F#X^<\	f	.	.	2a/ 2e-X^/	.	2F#X\	.	2ee-X\ 2cc^<\	.	2a/	2a\	f	4.aa\	.	4.aaa^\	.
.	.	.	.	.	.	.	.	.	.	.	.	.	.	.	.	.	.	.	.	.	8a/	.	8aa\	.
*	*	*	*	*	*	*	*	*	*	*	*	*	*	*	*	*	*	*v	*v	*	*	*	*	*
!!LO:PB:g=original
=46	=46	=46	=46	=46	=46	=46	=46	=46	=46	=46	=46	=46	=46	=46	=46	=46	=46	=46	=46	=46	=46	=46	=46
*	*	*	*	*	*	*	*	*	*	*^	*	*^	*	*	*	*^	*	*	*	*	*	*	*
!	!	!	!	!	!	!	!	!	!	!	!	!	!	!	!	!	!	!	!	!LO:DY:rj	!	!	!	!	!	!
4.G\	.	4.G/	.	4.en/ 4.c/	.	8g/L	.	4.G\	.	8Ree/L	4Ra\	.	8g/L 8en/	4rcyy	.	4.G\	.	4.een/	4.cc\	f	8g/L	.	8g/L	.	8gg\L	.
*	*	*	*	*	*	*	*	*	*	*tremolo	*	*	*	*	*	*	*	*	*	*	*	*	*	*	*	*
.	.	.	.	.	.	16cc/L	.	.	.	32Ree/LL	.	.	16cc/L 16c/	.	.	.	.	.	.	.	16cc/L	.	16cc/L	.	16ccc\L	.
.	.	.	.	.	.	.	.	.	.	32Ree/	.	.	.	.	.	.	.	.	.	.	.	.	.	.	.	.
.	.	.	.	.	.	16ee/JJ	.	.	.	32Ree/	.	.	16ee/JJ 16e/	.	.	.	.	.	.	.	16ee/JJ	.	16ee/JJ	.	16eee\JJ	.
.	.	.	.	.	.	.	.	.	.	32Ree/JJJ	.	.	.	.	.	.	.	.	.	.	.	.	.	.	.	.
*	*	*	*	*	*	*	*	*	*	*Xtremolo	*	*	*	*	*	*	*	*	*	*	*	*	*	*	*	*
.	.	.	.	.	.	8gg\	.	.	.	8Ree/	8Ra\	.	8g/	8g\	.	.	.	.	.	.	8gg\	.	8gg\	.	8ggg\	.
8r	.	8r	.	8r	.	8r	.	8r	.	8rBB	8r	.	8raa	8rcyy	.	8r	.	8r	8rcyy	.	8r	.	8r	.	8r	.
4GG/	.	4d/ 4G/	.	4f#/ 4G/	.	4bt\	.	4GG/	.	4ReeT/	4r	.	4f#/ 4d/	4rcyy	.	4Bt\	.	4dd/ 4g/	4rcyy	.	4bt\	.	4bt\	.	4bbt\	.
*	*	*	*	*	*	*	*	*	*	*	*	*	*v	*v	*	*	*	*v	*v	*	*	*	*	*	*	*
=47	=47	=47	=47	=47	=47	=47	=47	=47	=47	=47	=47	=47	=47	=47	=47	=47	=47	=47	=47	=47	=47	=47	=47	=47
*	*	*	*	*	*	*	*	*	*	*	*	*	*	*	*	*	*	*	*^	*	*	*	*	*
4C/	.	4c\	.	4e/ 4G/	.	4cc\	.	4C/	.	4Ree/	4r	.	4e/ 4c/	.	4c\	.	4cc/ 4e/	.	4cc\	2rcyy	.	4cc\	.	4ccc\	.
!	!	!	!	!	!	!	!	!	!	!	!	!	!	!	!	!	!	!	!	!	!	!	!LO:DY:rj	!	!
8C/	.	8cc\ 8e\ 8G\	.	8gg\ 8cc\ 8e\	.	8ccc\ 8ee\ 8g\	.	4C/	.	4Ree/	4Ra\	.	4cc/ 4e/	.	4C/	.	4cc/ 4e/	.	4ccc\ 4ee\	.	.	4ccc^<\	sf	4r	.
16C/LL	.	16c\LL	.	16e/LL 16G/	.	8r	.	.	.	.	.	.	.	.	.	.	.	.	.	.	.	.	.	.	.
16C/JJ	.	16c\JJ	.	16e/JJ 16G/	.	.	.	.	.	.	.	.	.	.	.	.	.	.	.	.	.	.	.	.	.
8BB/L	.	8B/L	.	8d/L 8G/	.	4r	.	4r	.	4r	4ryy	.	4r	.	8r	.	4r	.	8re	4re	.	4r	.	8r	.
8AA/J	.	8A/J	.	8f#X/J 8c/	.	.	.	.	.	.	.	.	.	.	8D\	.	.	.	8d|/	.	.	.	.	8dd\	.
*	*	*	*	*	*	*	*	*	*	*v	*v	*	*	*	*	*	*	*	*	*	*	*	*	*	*
=48	=48	=48	=48	=48	=48	=48	=48	=48	=48	=48	=48	=48	=48	=48	=48	=48	=48	=48	=48	=48	=48	=48	=48	=48
8GG/	fp	8G/L	.	8g/L 8B/	f	(4b/	.	2.r	.	2.r	.	2.r	.	4B\	.	2.ryy	.	(4b/	2.r	.	2.r	.	(4bb\	.
8r	.	8G/J	.	8g/J 8B/	p	.	.	.	.	.	.	.	.	.	.	.	.	.	.	.	.	.	.	.
8GG/	.	8r	.	8r	.	8g/)	.	.	.	.	.	.	.	8G\	.	.	.	8g/)	.	.	.	.	8gg\)	.
8r	.	8d\ 8G\	.	8g/ 8B/	.	8r	.	.	.	.	.	.	.	16r	.	.	.	16r	.	.	.	.	16r	.
.	.	.	.	.	.	.	.	.	.	.	.	.	.	16G\	.	.	.	16g|/	.	.	.	.	16gg\	.
8GG/	.	8r	.	8r	.	4r	.	.	.	.	.	.	.	(16F#\LL	.	.	.	(<16f#/LL	.	.	.	.	(16ff#\LL	.
.	.	.	.	.	.	.	.	.	.	.	.	.	.	16G\	.	.	.	16g/	.	.	.	.	16gg\	.
8r	.	8d\ 8G\	.	8g/ 8B/	.	.	.	.	.	.	.	.	.	16A\	.	.	.	16a/	.	.	.	.	16aa\	.
.	.	.	.	.	.	.	.	.	.	.	.	.	.	16B\JJ)	.	.	.	16b/JJ)	.	.	.	.	16bb\JJ)	.
=49	=49	=49	=49	=49	=49	=49	=49	=49	=49	=49	=49	=49	=49	=49	=49	=49	=49	=49	=49	=49	=49	=49	=49	=49
8AA/	.	8r	.	8r	.	(4cc/	.	2.r	.	2.r	.	2.r	.	(4c\	.	2.ryy	.	(4cc/	2.r	.	2.r	.	(4ccc\	.
8r	.	8d\ 8A\	.	8f#/ 8c/	.	.	.	.	.	.	.	.	.	.	.	.	.	.	.	.	.	.	.	.
*	*	*rep	*	*rep	*	*	*	*	*	*	*	*	*	*	*	*	*	*	*	*	*	*	*	*
8AA/	.	8r	.	8r	.	8f#/)	.	.	.	.	.	.	.	8F#\)	.	.	.	8f#/)	.	.	.	.	8ff#\)	.
8r	.	8d\ 8A\	.	8f#/ 8c/	.	8r	.	.	.	.	.	.	.	8r	.	.	.	8r	.	.	.	.	8r	.
*	*	*Xrep	*	*Xrep	*	*	*	*	*	*	*	*	*	*	*	*	*	*	*	*	*	*	*	*
*	*	*rep	*	*rep	*	*	*	*	*	*	*	*	*	*	*	*	*	*	*	*	*	*	*	*
8AA/	.	8r	.	8r	.	4r	.	.	.	.	.	.	.	8r	.	.	.	8r	.	.	.	.	8r	.
8r	.	8d\ 8A\	.	8f#/ 8c/	.	.	.	.	.	.	.	.	.	8D\	.	.	.	8d/	.	.	.	.	8dd\	.
*	*	*Xrep	*	*Xrep	*	*	*	*	*	*	*	*	*	*	*	*	*	*	*	*	*	*	*	*
!!LO:PB:g=original
=50	=50	=50	=50	=50	=50	=50	=50	=50	=50	=50	=50	=50	=50	=50	=50	=50	=50	=50	=50	=50	=50	=50	=50	=50
*	*	*	*	*	*	*	*	*	*	*	*	*	*	*	*	*^	*	*	*	*	*	*	*	*
8BB/	.	8r	.	8r	.	4r	.	2.r	.	2.r	.	2.r	.	4.d\	<	4.dd/	2g\	.	4.dd/	2.r	.	4.dd\	.	(4.ddd\	<
8r	.	8d\ 8G\	.	8g/ 8G/	.	.	.	.	.	.	.	.	.	.	.	.	.	.	.	.	.	.	.	.	.
8BB/	.	8r	.	8r	.	4r	.	.	.	.	.	.	.	.	.	.	.	.	.	.	.	.	.	.	.
8r	.	8d#X\ 8G\	.	8g/ 8G/	.	.	.	.	.	.	.	.	.	(8d#X\	[ >	8dd#X/	.	.	(8dd#X/	.	.	(8dd#X\	.	8ddd#X\)	[ >
8C/	.	8r	.	8r	.	(16ff#\LL	.	.	.	.	.	.	.	16f#\LL	.	4ee/	4cc\	.	16ff#/LL	.	.	8ee\L	.	(16fff#\LL	.
.	.	.	.	.	.	16ee\	.	.	.	.	.	.	.	16e\	.	.	.	.	16ee/	.	.	.	.	16eee\	.
8r	.	8e\ 8c\	.	8a/ 8c/	.	16dd\	.	.	.	.	.	.	.	16c\	]	.	.	.	16cc/	.	.	8cc\J)	.	16ccc\	]
.	.	.	.	.	.	16cc\JJ)	.	.	.	.	.	.	.	16A\JJ)	.	.	.	.	16a/JJ)	.	.	.	.	16aa\JJ)	.
=51	=51	=51	=51	=51	=51	=51	=51	=51	=51	=51	=51	=51	=51	=51	=51	=51	=51	=51	=51	=51	=51	=51	=51	=51	=51
!	!	!	!	!	!	!	!	!	!	!	!	!	!	!	!	!LO:N:vis=4.	!	!	!	!	!	!	!	!	!
8D\	.	8r	.	8r	.	(8.g/L	.	2.r	.	2.r	.	4r	.	(8.B\L	.	4dd/ 4g/	4ryy	.	8.g/L	4re	.	(8.b\L	.	(8.gg\L	.
8r	.	8d\L	.	8g/L 8B/	.	.	.	.	.	.	.	.	.	.	.	.	.	.	.	.	.	.	.	.	.
.	.	.	.	.	.	32a/LL	.	.	.	.	.	.	.	32c\LL	.	.	.	.	32a/LL	.	.	32cc\LL	.	32aa\LL	.
.	.	.	.	.	.	32g/JJJ)	.	.	.	.	.	.	.	32B\JJJ)	.	.	.	.	32g/JJJ	.	.	32b\JJJ	.	32gg\JJJ)	.
8D\	.	8d\J	.	8f#/J 8A/	.	8f#/	.	.	.	.	.	8.r	.	8A\L	.	8dd/	8dd\	.	8f#/L	8.re	.	8a\L)	.	8ff#\L	.
8r	.	8r	.	8r	.	16r	.	.	.	.	.	.	.	16r	.	8r	8rcyy	.	16rc	.	.	16r	.	16r	.
!	!	!	!	!	!	!	!	!	!	!	!	!	!	!	!	!	!	!	!LO:TX:b:i:t=due	!	!	!	!	!	!
.	.	.	.	.	.	16d/	<	.	.	.	.	16d|/	.	16D\Jk	.	.	.	.	(16d/Jk	16rc	.	16dd|\Jk	.	16dd|\Jk	.
4r	.	4r	.	4r	.	(16e/LL	.	.	.	.	.	(16e/LL	.	(16E\LL	.	4r	4rcyy	.	16e/LL	4rc	.	(16ee\LL	.	(16ee\LL	.
.	.	.	.	.	.	16f#/	.	.	.	.	.	16f#/	.	16F#\	.	.	.	.	16f#/	.	.	16ff#\	.	16ff#\	.
.	.	.	.	.	.	16g/	.	.	.	.	.	16g/	.	16G\	.	.	.	.	16g/	.	.	16gg\	.	16gg\	.
.	.	.	.	.	.	16a/JJ)	[ f	.	.	.	.	16a/JJ)	.	16A\JJ	.	.	.	.	16a/JJ	.	.	16aa\JJ	.	16aa\JJ)	.
*	*	*	*	*	*	*	*	*	*	*	*	*	*	*	*	*v	*v	*	*	*	*	*	*	*	*
*	*	*	*	*	*	*	*	*	*	*	*	*	*	*	*	*	*	*v	*v	*	*	*	*	*
=52	=52	=52	=52	=52	=52	=52	=52	=52	=52	=52	=52	=52	=52	=52	=52	=52	=52	=52	=52	=52	=52	=52	=52
*	*	*	*	*	*	*	*	*	*	*^	*	*^	*	*	*	*	*	*	*	*	*	*	*
!	!LO:DY:rj	!	!	!	!	!LO:TX:t=5.:ołówkiem:problem	!	!	!	!	!	!	!	!	!	!LO:TX:t=P:problem=brak zakończenia łuku	!	!	!	!LO:TX:t=P:problem=brak zakończenia łuku	!	!LO:TX:t=P:problem=brak zakończenia łuku	!	!	!
(y>4GG/yy	fy	(y4d/yy	.	(y4g/yy	.	(16b/LL	.	4G\yy	.	8Ree/Lyy	4Ra\yy	.	(y16b/LLyy	4g\yy	.	(y16B\LL)yy	.	4.ddyy/ 4.g/yy	.	(y16b/LL)yy	.	(y16bb\LL)yy	.	(y16bb\LLyy	.
.	.	.	.	.	.	16cc/	.	.	.	.	.	.	16cc/yy	.	.	16c\yy	.	.	.	16cc/yy	.	16ccc\yy	.	16ccc\yy	.
*	*	*	*	*	*	*	*	*	*	*tremolo	*	*	*	*	*	*	*	*	*	*	*	*	*	*	*
.	.	.	.	.	.	16b/	.	.	.	32Ree/LLyy	.	.	16b/yy	.	.	16B\yy	.	.	.	16b/yy	.	16bb\yy	.	16bb\yy	.
.	.	.	.	.	.	.	.	.	.	32Ree/yy	.	.	.	.	.	.	.	.	.	.	.	.	.	.	.
.	.	.	.	.	.	16a/JJ	.	.	.	32Ree/yy	.	.	16a/JJ)yy	.	.	16A\JJyy	.	.	.	16a/JJyy	.	16aa\JJyy	.	16aa\JJyy	.
.	.	.	.	.	.	.	.	.	.	32Ree/JJJyy	.	.	.	.	.	.	.	.	.	.	.	.	.	.	.
*	*	*	*	*	*	*	*	*	*	*Xtremolo	*	*	*	*	*	*	*	*	*	*	*	*	*	*	*
8G\)yy	.	8B/)yy	.	8d/)yy	.	8g/)	.	8G\yy	.	8Ree/yy	8Ra\yy	.	8g/Lyy	8d\yy	.	8G\L)yy	.	.	.	8g/L)yy	.	8gg\L)yy	.	8gg\L)yy	.
8ryy	.	8B/yy	.	8d/yy	.	16r	.	8ryy	.	8ryy	8ryy	.	16ryy	8d\yy	.	16ryy	.	8ddyy/ 8g/yy	.	16ryy	.	16ryy	.	16ryy	.
.	.	.	.	.	.	16g|/	.	.	.	.	.	.	16g'/Jkyy	.	.	16G|\Jkyy	.	.	.	16g|/Jkyy	.	(y16gg\Jkyy	.	16gg|\Jkyy	.
8G\yy	.	8ryy	.	8ryy	.	(16f#/LL	.	8G\yy	.	4ryy	4ryy	.	(y16f#/LLyy	8rcyy	.	(y16F#\LLyy	.	8ryy	.	(y16f#/LLyy	.	16ff#\LLyy	.	(y16ff#\LLyy	.
.	.	.	.	.	.	16g/	.	.	.	.	.	.	16g/yy	.	.	16G\yy	.	.	.	16g/yy	.	16gg\yy	.	16gg\yy	.
8ryy	.	8B/yy	.	8d/yy	.	16a/	.	8ryy	.	.	.	.	16a/yy	8d\yy	.	16A\yy	.	8ddyy/ 8g/yy	.	16a/yy	.	16aa\yy	.	16aa\yy	.
.	.	.	.	.	.	16b/JJ)	.	.	.	.	.	.	16b/JJ)yy	.	.	16B\JJyy	.	.	.	16b/JJyy	.	16bb\JJyy	.	16bb\JJ)yy	.
=53	=53	=53	=53	=53	=53	=53	=53	=53	=53	=53	=53	=53	=53	=53	=53	=53	=53	=53	=53	=53	=53	=53	=53	=53	=53
*	*	*	*	*	*	*	*	*	*	*	*	*	*	*	*	*^	*	*^	*	*	*	*	*	*	*
!	!	!	!	!	!	!LO:TX:t=6.:ołówkiem:problem	!	!	!	!	!	!	!	!	!	!	!	!	!LO:TX:t=P:problem=partie rogu i fagotów zamienione	!	!	!LO:TX:b:i:t=due	!	!LO:TX:t=P:problem=brak zakończenia łuku	!	!LO:TX:a:t=Col Vo. 8va	!
!	!	!	!	!	!	!	!	!	!	!	!	!	!	!	!	!LO:TX:t=P:problem=brak zakończenia łuku	!	!	!	!	!	!LO:TX:t=P:problem=brak zakończenia łuku	!	!	!	!	!
(y>4AA/yy	.	4.c\yy	.	(y4f#/yy	.	(16cc\LL	.	4.A\yy	.	8Ree/Lyy	4Ra\yy	.	(y<(y16cc/LLyy	4rcyy	.	(y16c\LL)yy	4rEEyyyy	.	8rddyy	4rcyyyy	.	(y>16cc/LL)yy	.	(y16ccc\LL)yy	.	(y16ccc\LLyy	.
.	.	.	.	.	.	16dd\	.	.	.	.	.	.	16dd/yy	.	.	16d\yy	.	.	.	.	.	16dd/yy	.	16ddd\yy	.	16ddd\yy	.
!	!	!	!	!	!	!	!	!	!	!	!	!	!	!	!	!	!	!	!LO:TX:a:i:t=Corni	!	!	!	!	!	!	!	!
*	*	*	*	*	*	*	*	*	*	*tremolo	*	*	*	*	*	*	*	*	*	*	*	*	*	*	*	*	*
.	.	.	.	.	.	16cc\	.	.	.	32Ree/LLyy	.	.	16cc/yy	.	.	16c\yy	.	.	8dd\Lyy 8cc\yy	.	.	16cc/yy	.	16ccc\yy	.	16ccc\yy	.
.	.	.	.	.	.	.	.	.	.	32Ree/yy	.	.	.	.	.	.	.	.	.	.	.	.	.	.	.	.	.
.	.	.	.	.	.	16a\JJ)	.	.	.	32Ree/yy	.	.	16a/JJ)yy	.	.	16A\JJyy	.	.	.	.	.	16a/JJyy	.	16aa\JJyy	.	16aa\JJ)yy	.
.	.	.	.	.	.	.	.	.	.	32Ree/JJJyy	.	.	.	.	.	.	.	.	.	.	.	.	.	.	.	.	.
*	*	*	*	*	*	*	*	*	*	*Xtremolo	*	*	*	*	*	*	*	*	*	*	*	*	*	*	*	*	*
8A\)yy	.	.	.	8d/)yy	.	8f#/	.	.	.	8Ree/yy	4ryy	.	8f#/)yy	4rcyyyy	.	8F#\)yy	4rEEyyyy	.	8dd\Jyy 8cc\yy	4rcyyyy	.	8f#/)yy	.	8ff#\)yy	.	8ff#\yy	.
8ryy	.	8ryy	.	8ryy	sfy	8r	.	8ryy	.	8ryy	.	.	8ryy	.	.	8ryy	.	.	8rddyy	.	.	8ryy	.	8ryy	.	8ryy	.
!	!	!	!	!	!	!	!	!	!LO:DY:a:rj	!	!	!	!	!	!	!	!	!	!	!	!	!	!	!	!	!	!
8d\yy 8D\yy	sfy	8f#/yy 8A/yy 8D/yy	.	8dd/yy 8f#/yy	.	8r	.	8D\yy	fy	8Ree/yy	8Ra\yy	.	8dd/yy	8f#\yy	.	8ryy	8ryy	.	8dd/yy	8dd\yy	.	8ryy	.	4ryy	.	8ryy	.
8ryy	.	8ryy	.	8ryy	.	(8dd\	.	8ryy	.	8rAyy	8rFyy	.	8d/yy	8rAyy	.	8d\yy	8rEEyyyy	.	8rddyy	8rcyyyy	.	8dd/yy	.	.	.	8ddd\yy	.
*	*	*	*	*	*	*	*	*	*	*	*	*	*	*	*	*v	*v	*	*	*	*	*	*	*	*	*	*
*	*	*	*	*	*	*	*	*	*	*	*	*	*	*	*	*	*	*v	*v	*	*	*	*	*	*	*
!!LO:PB:g=original
=54	=54	=54	=54	=54	=54	=54	=54	=54	=54	=54	=54	=54	=54	=54	=54	=54	=54	=54	=54	=54	=54	=54	=54	=54	=54
!	!	!	!	!	!	!	!	!	!	!	!	!	!	!	!	!	!	!LO:TX:t=P:problem=odtąd partie rogu i fagotu zamienione miejscami	!	!	!	!	!	!LO:TX:a:t=Col Vo. 1o. 8va	!
8BB/	<	8r	.	8r	.	[4dd\	<	2BB/	.	8Ree/L	4Ra\	.	[4d/	8r	.	8r	.	([4bb\	.	([4dd\	.	4.dd\	.	[y4ddd\yy	.
*	*	*	*	*	*	*	*	*	*	*tremolo	*	*	*	*	*	*	*	*	*	*	*	*	*	*	*
8r	.	8d/ 8G/	.	8g/ 8G/	.	.	.	.	.	32Ree/LL	.	.	.	8B\	.	8F#/ 8BB/	.	.	.	.	.	.	.	.	.
.	.	.	.	.	.	.	.	.	.	32Ree/	.	.	.	.	.	.	.	.	.	.	.	.	.	.	.
.	.	.	.	.	.	.	.	.	.	32Ree/	.	.	.	.	.	.	.	.	.	.	.	.	.	.	.
.	.	.	.	.	.	.	.	.	.	32Ree/JJJ	.	.	.	.	.	.	.	.	.	.	.	.	.	.	.
*	*	*	*	*	*	*	*	*	*	*Xtremolo	*	*	*	*	*	*	*	*	*	*	*	*	*	*	*
*	*	*	*	*	*	*	*	*	*	*rep	*	*	*	*rep	*	*	*	*	*	*	*	*	*	*	*
8BB/	.	8r	.	8r	.	16dd\LL]	.	.	.	8Ree/L	4Ra\	.	16d/LL]	8r	.	8r	.	16bb\LL]	.	(16dd\LL]	.	.	.	16ddd\LL]yy	.
.	.	.	.	.	.	16gg\	.	.	.	.	.	.	(16g/	.	.	.	.	16eee\	.	16gg\	.	.	.	16ggg\yy	.
*	*	*	*	*	*	*	*	*	*	*tremolo	*	*	*	*	*	*	*	*	*	*	*	*	*	*	*
8r	.	8d/ 8G/	.	8g/ 8G/	.	16ff#\	.	.	.	32Ree/LL	.	.	16f#/	8B\	.	8F#X/ 8BB/	.	16ddd\	.	16ff#\	.	8dd#X\	.	16fff#\yy	.
.	.	.	.	.	.	.	.	.	.	32Ree/	.	.	.	.	.	.	.	.	.	.	.	.	.	.	.
.	.	.	.	.	.	16gg\JJ)	[ >	.	.	32Ree/	.	.	16g/JJ	.	.	.	.	16eee\JJ	.	16gg\JJ	.	.	.	16ggg\JJyy	.
.	.	.	.	.	.	.	.	.	.	32Ree/JJJ	.	.	.	.	.	.	.	.	.	.	.	.	.	.	.
*	*	*	*	*	*	*	*	*	*	*Xtremolo	*	*	*	*Xrep	*	*	*	*	*	*	*	*	*	*	*
*	*	*	*	*	*	*	*	*	*	*Xrep	*	*	*	*	*	*	*	*	*	*	*	*	*	*	*
*	*	*	*	*	*	*	*	*	*	*rep	*	*	*	*	*	*	*	*	*	*	*	*	*	*	*
8C/	[	8r	.	8r	.	(16ff#\LL	.	4C/	.	8Ree/L	4Ra\	.	16f#/LL	8rc	.	8r	.	16ddd\LL	.	16ff#\LL	.	8ee\L	.	(y16fff#\LLyy	.
.	.	.	.	.	.	16ee\	.	.	.	.	.	.	16e/	.	.	.	.	16ccc\	.	16ee\	.	.	.	16eee\yy	.
*	*	*	*	*	*	*	*	*	*	*tremolo	*	*	*	*	*	*	*	*	*	*	*	*	*	*	*
8r	.	8e\ 8c\	.	8a/ 8c/	.	16cc\	]	.	.	32Ree/LL	.	.	16cc/	8c\	.	8G\ 8E\	.	16aa\	.	16cc\	.	8cc\J	.	16ccc\yy	.
.	.	.	.	.	.	.	.	.	.	32Ree/	.	.	.	.	.	.	.	.	.	.	.	.	.	.	.
.	.	.	.	.	.	16a\JJ)	.	.	.	32Ree/	.	.	16a/JJ)	.	.	.	.	16ff#\JJ)	.	16a\JJ))	.	.	.	16aa\JJ)yy	.
.	.	.	.	.	.	.	.	.	.	32Ree/JJJ	.	.	.	.	.	.	.	.	.	.	.	.	.	.	.
*	*	*	*	*	*	*	*	*	*	*Xtremolo	*	*	*	*	*	*	*	*	*	*	*	*	*	*	*
*	*	*	*	*	*	*	*	*	*	*Xrep	*	*	*	*	*	*	*	*	*	*	*	*	*	*	*
=55	=55	=55	=55	=55	=55	=55	=55	=55	=55	=55	=55	=55	=55	=55	=55	=55	=55	=55	=55	=55	=55	=55	=55	=55	=55
*	*	*	*	*	*	*	*	*	*	*	*	*	*	*	*	*^	*	*	*	*	*	*	*	*	*
!	!LO:DY:rj	!	!	!	!	!	!LO:DY:rj	!	!	!	!	!	!	!	!	!	!	!	!	!	!	!	!	!	!	!
4D\	f	4d/ 4G/	.	4g/ 4B/	.	16g/LL	f	4D\	.	4Ree/	4Ra\	.	16g/LL	4B\	.	4F#/ 4BB/	2rEEyy	.	(16ee\LL	.	(16g/LL	.	(16b\LL	.	(16gg\LL	.
.	.	.	.	.	.	16d/	.	.	.	.	.	.	(16d/	.	.	.	.	.	16b\	.	16d/	.	16dd\	.	16dd\	.
.	.	.	.	.	.	16b/	.	.	.	.	.	.	16b/	.	.	.	.	.	16gg\	.	16b/	.	16bb\	.	16bb\	.
.	.	.	.	.	.	16g/JJ	.	.	.	.	.	.	16a/JJ)	.	.	.	.	.	16ff#\JJ)	.	16a/JJ)	.	16gg\JJ)	.	16aa\JJ)	.
4r	.	4r	.	4r	.	4dd\	.	4r	.	4r	4rEEyy	.	4dd\	4rc	.	4r	.	.	4bb\	.	4dd\	.	4dd'\	.	4ddd\	.
4D\	.	4f#/ 4A/	.	4cc/ 4d/	.	4ff#\ 4a\ 4d\	.	4D\	.	4ReeT/	4Ra\	.	4f#/ 4A/	4rcyy	.	4F#/	4E\	.	4ff#\	.	4ff#\ 4a\	.	4ff#\	.	4fff#\	.
=56	=56	=56	=56	=56	=56	=56	=56	=56	=56	=56	=56	=56	=56	=56	=56	=56	=56	=56	=56	=56	=56	=56	=56	=56	=56	=56
*	*	*	*	*	*	*	*	*	*	*	*	*	*	*	*	*	*	*	*	*	*^	*	*	*	*	*
*	*	*	*	*	*	*	*	*	*	*rep	*rep	*	*	*	*	*	*	*	*	*	*	*	*	*	*	*	*
4G\	.	4g/ 4B/	.	4b/ 4d/	.	(16gg\LL	.	4GG/	.	4Ree/	4Ra\	.	(16g/LL	4B\	.	4F#/ 4BB/	2ryy	.	(16ee\LL	.	(16gg/LL	4b\	.	(16gg\LL	.	(16ggg\LL	.
.	.	.	.	.	.	16ee\	.	.	.	.	.	.	16ee/	.	.	.	.	.	16ccc\	.	16ee/	.	.	16ee\	.	16eee\	.
.	.	.	.	.	.	16dd\	.	.	.	.	.	.	16dd/	.	.	.	.	.	16bb\	.	16dd/	.	.	16dd\	.	16ddd\	.
.	.	.	.	.	.	16b\JJ)	.	.	.	.	.	.	16b/JJ)	.	.	.	.	.	16gg\JJ)	.	16b/JJ)	.	.	16b\JJ)	.	16bb\JJ)	.
4r	.	4r	.	4r	.	4dd\	.	4r	.	4r	4rEEyy	.	4dd\	4rc	.	4r	.	.	4bb\	.	4dd/	4rg	.	4dd\	.	4ddd\	.
4D\	.	4f#/ 4A/	.	4cc/ 4d/	.	4ff#t\	.	4D\	.	4ReeT/	4Ra\	.	4f#/	4A\	.	4F#/	4E\	.	4ff#\	.	4ff#\ 4aT\	4rcyy	.	4ff#t\	.	4fff#t\	.
*	*	*	*	*	*	*	*	*	*	*Xrep	*Xrep	*	*	*	*	*	*	*	*	*	*	*	*	*	*	*	*
=57	=57	=57	=57	=57	=57	=57	=57	=57	=57	=57	=57	=57	=57	=57	=57	=57	=57	=57	=57	=57	=57	=57	=57	=57	=57	=57	=57
*rep	*	*rep	*	*rep	*	*rep	*	*	*	*rep	*rep	*	*rep	*rep	*	*rep	*rep	*	*rep	*	*	*	*	*rep	*	*	*
4G\	.	4g/ 4B/	.	4b/ 4d/	.	(16gg\LL	.	4GG/	.	4Ree/	4Ra\	.	(16g/LL	4B\	.	4F#/ 4BB/	2ryy	.	(16ee\LL	.	(16gg/LL	4b\	.	(16gg\LL	.	(16ggg\LL	.
.	.	.	.	.	.	16ee\	.	.	.	.	.	.	16ee/	.	.	.	.	.	16ccc\	.	16ee/	.	.	16ee\	.	16eee\	.
.	.	.	.	.	.	16dd\	.	.	.	.	.	.	16dd/	.	.	.	.	.	16bb\	.	16dd/	.	.	16dd\	.	16ddd\	.
.	.	.	.	.	.	16b\JJ)	.	.	.	.	.	.	16b/JJ)	.	.	.	.	.	16gg\JJ)	.	16b/JJ)	.	.	16b\JJ)	.	16bb\JJ)	.
4r	.	4r	.	4r	.	4dd\	.	4r	.	4r	4rEEyy	.	4dd\	4rc	.	4r	.	.	4bb\	.	4dd/	4rg	.	4dd\	.	4ddd\	.
4D\	.	4f#/ 4A/	.	4cc/ 4d/	.	4ff#t\	.	4D\	.	4ReeT/	4Ra\	.	4f#/	4A\	.	4F#/	4E\	.	4ff#\	.	4ff#t/	4a\	.	4ff#t\	.	4fff#t\	.
*Xrep	*	*Xrep	*	*Xrep	*	*Xrep	*	*	*	*Xrep	*Xrep	*	*Xrep	*Xrep	*	*Xrep	*Xrep	*	*Xrep	*	*	*	*	*Xrep	*	*	*
*	*	*	*	*	*	*	*	*	*	*	*	*	*v	*v	*	*	*	*	*	*	*v	*v	*	*	*	*	*
*	*	*	*	*	*	*	*	*	*	*	*	*	*	*	*v	*v	*	*	*	*	*	*	*	*	*
=58	=58	=58	=58	=58	=58	=58	=58	=58	=58	=58	=58	=58	=58	=58	=58	=58	=58	=58	=58	=58	=58	=58	=58	=58
8G|\	.	8g\ 8B|\	.	8b/ 8d/	.	8gg|\L	.	8G\	.	8Ree/	8Ra\	.	8g/ 8B/	.	8F#/ 8BB/	.	8ee\	.	8gg\ 8b\	.	8gg\	.	8ggg\	.
(8e\L	.	(8e|\L	.	(8ee|\L	.	(8ee\	.	8r	.	8r	8rEEyy	.	8r	.	8r	.	8r	.	8r	.	8r	.	8r	.
8d\)	.	(8d\)	.	(8dd\)	.	8dd\)	.	4r	.	4r	4rEEyy	.	4r	.	4r	.	4r	.	4r	.	4r	.	4r	.
(8B\	.	(8B\)	.	(8b\)	.	(8b\	.	.	.	.	.	.	.	.	.	.	.	.	.	.	.	.	.	.
8G\)	.	8G\)	.	(8g\)	.	8g\)	.	4r	.	4r	4rEEyy	.	4r	.	4r	.	4r	.	4r	.	4r	.	4r	.
8E|\J	.	8E|\J	.	8e|\J)	.	8e|\J	.	.	.	.	.	.	.	.	.	.	.	.	.	.	.	.	.	.
!!LO:PB:g=original
=59	=59	=59	=59	=59	=59	=59	=59	=59	=59	=59	=59	=59	=59	=59	=59	=59	=59	=59	=59	=59	=59	=59	=59	=59
*	*	*	*	*	*	*	*	*	*	*	*	*	*	*	*	*	*^	*	*	*	*	*	*	*
8D\	.	8D/	.	8d/	.	8d/	.	4r	.	4r	4rEEyy	.	4r	.	4r	.	4r	2rcyy	.	4r	.	4r	.	4r	.
8r	.	8r	.	8r	.	8r	.	.	.	.	.	.	.	.	.	.	.	.	.	.	.	.	.	.	.
4d\	.	4g/ 4B/	.	4b/ 4d/	.	4gg\ 4b\ 4d\	.	4D\	.	4ReeT/	4Ra\	.	4g/ 4B/	.	4B\	.	4dd/ 4g/	.	.	4gg\ 4b\	.	4bb\	.	4ggg\	.
4D\	.	4f#/ 4A/	.	4cc/ 4d/	.	4ff#\ 4a\ 4d\	.	4D\	.	4ReeT/	4Ra\	.	4f#/ 4A/	.	4A\	.	4dd/	4cc\	.	4ff#\ 4cc\	.	4aa\	.	4fff#\	.
=60	=60	=60	=60	=60	=60	=60	=60	=60	=60	=60	=60	=60	=60	=60	=60	=60	=60	=60	=60	=60	=60	=60	=60	=60	=60
4G\	.	4g\ 4B\	.	4b/ 4d/ 4G/	.	4gg\ 4b\ 4d\	.	4G\	.	4Ree/	4Ra\	.	4g/ 4B/	.	4B\	.	4dd/ 4g/	4rc	.	4gg\ 4b\	.	4bb\	.	4ggg\	.
4GG/	.	4G/	.	4g/ 4G/	.	4g/ 4G/	.	4GG/	.	4Ree/	4Ra\	.	4g/ 4G/	.	4G\	.	4g/	4g\	.	4g/	.	4gg\	.	4gg\	.
4r	.	4r	.	4r	.	4r	.	4r	.	4r	4rEEyy	.	4r	.	4r	.	4r	4rcyy	.	4r	.	4r	.	4r	.
*	*	*	*	*	*	*	*	*	*	*	*	*	*	*	*	*	*v	*v	*	*	*	*	*	*	*
!!LO:PB:g=original
=61|!	=61|!	=61|!	=61|!	=61|!	=61|!	=61|!	=61|!	=61|!	=61|!	=61|!	=61|!	=61|!	=61|!	=61|!	=61|!	=61|!	=61|!	=61|!	=61|!	=61|!	=61|!	=61|!	=61|!	=61|!
*^	*	*^	*	*	*	*	*	*	*	*	*	*	*^	*	*	*	*	*	*	*	*	*	*	*
*	*	*	*	*	*	*Xtuplet	*	*Xtuplet	*	*tremolo	*	*	*tremolo	*	*Xtuplet	*	*	*	*	*	*	*	*	*Xtuplet	*	*Xtuplet	*
!	!	!	!	!	!	!	!	!	!	!	!	!	!	!	!	!	!	!	!	!	!	!	!	!	!	!LO:TX:t=P:problem=jakieś jeszcze dwa takty, trudno powiedzieć do czego.	!
8B/L	8D\L	.	8d/L	4B\	.	24dd\LL	.	24ddd\LL	.	8D\L	.	4.ReeTT/	8Ra\L	.	24d/LL	8d\L	.	8Bn\L	.	8een\L 8cc\	.	(8dd\L 8bn\	.	24dd\LL	.	24dd\LLyy	.
.	.	.	.	.	.	24cc#X\	.	24ccc#X\	.	.	.	.	.	.	24c#X/	.	.	.	.	.	.	.	.	24cc#X\	.	24cc#X\yy	.
.	.	.	.	.	.	24dd\JJ	.	24ddd\JJ	.	.	.	.	.	.	24d/JJ	.	.	.	.	.	.	.	.	24dd\JJ	.	24dd\JJyy	.
8A#X/	8D\	.	8c#X/ 8A#X/	.	.	24ee\LL	.	24eee\LL	.	8D\	.	.	8Ra\	.	24e/LL	8c#\	.	8A#X\	.	8dd#X\	.	8cc#X\ 8a#X\	.	24ee\LL	.	24ee\LLyy	.
.	.	.	.	.	.	24dd\	.	24ddd\	.	.	.	.	.	.	24d/	.	.	.	.	.	.	.	.	24dd\	.	24dd\yy	.
.	.	.	.	.	.	24ee\JJ	.	24eee\JJ	.	.	.	.	.	.	24e/JJ	.	.	.	.	.	.	.	.	24ee\JJ	.	24ee\JJyy	.
8An/J	8D\J	.	8cn/J 8An/	8rDyy	.	24ff#\LL	.	24fff#\LL	.	8D\J	.	.	8Ra\J	.	24f#/LL	8cn\J	.	8An\J	.	8ddn\J	.	8ccn\J 8an\)	.	24ff#\LL	.	24ff#\LLyy	.
.	.	.	.	.	.	24ee\	.	24eee\	.	.	.	.	.	.	24e/	.	.	.	.	.	.	.	.	24ee\	.	24ee\yy	.
.	.	.	.	.	.	24ff#\JJ	.	24fff#\JJ	.	.	.	.	.	.	24f#/JJ	.	.	.	.	.	.	.	.	24ff#\JJ	.	24ff#\JJyy	.
*	*	*	*v	*v	*	*	*	*	*	*	*	*	*	*	*v	*v	*	*	*	*	*	*	*	*	*	*	*
=62	=62	=62	=62	=62	=62	=62	=62	=62	=62	=62	=62	=62	=62	=62	=62	=62	=62	=62	=62	=62	=62	=62	=62	=62	=62
16G/	16GG\	.	16B/ 16G/	.	16gg\	.	16ggg\	.	16GG/	.	16Ree/	16Ra\	.	16g/ 16B/	.	16G\	.	16cc\	.	16b/ 16g/	.	16gg\	.	16gg\yy	.
16rF	16rEEyy	.	16r	.	16r	.	16r	.	16r	.	16r	16r	.	16r	.	16r	.	16r	.	16r	.	16r	.	16ryy	.
4G\	4rEEyy	.	4d/ 4G/	.	4g/ 4B/	.	4gg\	.	4G\	.	4Ree/	4Ra\	.	4g/ 4B/	.	4G\	.	4cc/ 4c/	.	4gg\ 4b\	.	4gg\	.	4gg\yy	.
*v	*v	*	*	*	*	*	*	*	*	*	*v	*v	*	*	*	*	*	*	*	*	*	*	*	*	*
==	==	==	==	==	==	==	==	==	==	==	==	==	==	==	==	==	==	==	==	==	==	==	==
*-	*-	*-	*-	*-	*-	*-	*-	*-	*-	*-	*-	*-	*-	*-	*-	*-	*-	*-	*-	*-	*-	*-	*-
!!!system-decoration: [(s1,s2,s3,s4,s5,s6,s7,s8,{s9,s10},s11,s12)]
!!!RDF**kern: | = vertical stroke
!!!RDF**kern: > = above
!!!RDF**kern: < = below
!!!EED: Andrzej Borzym
!!!EEV: 2021-06-28
!!!ENC: Mateusz Solarz
!!!END: 2021-06-23
